!!!COM: Beethoven
!!!OTL: Six Variations on an Original Theme
!!!Variation: Theme a
**function	**harm	**kern	**kern
*	*	*clefF4	*clefG2
*	*	*k[b-]	*k[b-]
*M2/4	*M2/4	*M2/4	*M2/4
*F:	*F:	*F:	*F:
8T	8I	8r	8cc
=1	=1	=1	=1
*	*	*^	*
4T	4I	(4A 4c	8FL	(4f 4cc
.	.	.	8FJ	.
8T	8IVc	8B-L 8d	8FL	8fL 8dd
8T	8I	8AJ) 8c	8FJ	8fJ) 8cc
*	*	*v	*v	*
=2	=2	=2	=2
4T	4V7	4F 4G 4B- 4c 4e	4g 4b- 4cc 4ee
4T	4I	8F' 8A' 8c' 8f'	8a' 8cc' 8ff'
.	.	8r	16r
.	.	.	16cc
=3	=3	=3	=3
*	*	*^	*^
8T	8I	(4A	8FL	8.ccL	4f
8T	8V7d/IV	.	8E-J	.	.
.	.	.	.	(16ccJk	.
8P	8IVb	16B-LL	8DL	16ddLL	8fL
.	.	16A)	.	16cc)	.
16P	16V7b	(16G	16EL	(16b-	16cL
16P	16I	16FJJ)	16FJJ	16aJJ)	16cJJ
=4	=4	=4	=4	=4	=4
4D	4Ic	(4F	16.CLL	(4a	4c
.	.	.	32BBk	.	.
.	.	.	16.C	.	.
.	.	.	32BBJJk	.	.
16D	16V	16E)	16C	16gLL)	16c
*	*	*v	*v	*	*
*	*	*	*v	*v
*-	*-	*-	*-
!!!COM: Beethoven
!!!OTL: Six Variations on an Original Theme
!!!Variation: Theme b
**function	**harm	**kern	**kern
*	*	*clefF4	*clefG2
*	*	*k[b-]	*k[b-]
*M2/4	*M2/4	*M2/4	*M2/4
*F:	*F:	*F:	*F:
8.D	8.V	8.r	(16a'
.	.	.	16b-'
.	.	.	16b'JJ)
=5	=5	=5	=5
*	*	*	*^
.	.	.	16cQ	.
.	.	.	16fQ	.
.	.	.	16aQ	.
4T	4I	8FF'L	(4cc	8r
.	.	(8FJ 8A 8c	.	8f
8T	8IVc	8FL 8B- 8d	8ddL	8fL
8T	8I	8FJ) 8A 8c	8ccJ)	8fJ
*	*	*	*v	*v
=6	=6	=6	=6
4T	4viioD7	4F 4G 4B- 4d- 4e	4g 4b- 4dd- 4ee
4T	4I	8F' 8A' 8c' 8f'	8a' 8cc' 8ff'
.	.	8r	16r
.	.	.	16ff
=7	=7	=7	=7
*	*	*	*^
4.D	4.Ic	4c	(8aLL	16.ff
.	.	.	.	32ccJJk)
.	.	.	4f	4a
.	.	4C	.	.
8D	8V7	.	(16.eLL	16.b-
.	.	.	32B-JJk	32g
*	*	*	*v	*v
=8	=8	=8	=8
4..T	4..I	16FF' 16F'	16A') 16f'
.	.	16r	16r
*	*	*	*clefF4
.	.	16FFF' 16FF'	16A' 16c'
.	.	16r	16r
.	.	16FFF' 16FF'	16F' 16A'
.	.	16r	16r
.	.	16r	16r
*-	*-	*-	*-
!!!COM: Beethoven
!!!OTL: Six Variations on an Original Theme
!!!Variation: Theme c
**function	**harm	**kern	**kern
*	*	*clefF4	*clefG2
*	*	*k[b-]	*k[b-]
*M2/4	*M2/4	*M2/4	*M2/4
*F:	*F:	*F:	*F:
16T	16I	16A	16cc
=9	=9	=9	=9
*	*	*^	*^
2T	2IV	(8.B-L	4F	(8.ddL	4f
.	.	16cJk	.	16eeJk	.
.	.	16dLL	4F	16ffLL	4f
.	.	16c#	.	16ee	.
.	.	16d	.	16ff	.
.	.	16B-JJ)	.	16ddJJ)	.
=10	=10	=10	=10	=10	=10
8T	8I	8AL	(8FL	(8ccL	8fL
8T	8V7c	8cJ	8GJ	8eeJ	8b-J
8T	8Ib	8cL	8AL	8ffL	8aL
8T	8vi7b	8cJ	8FJ)	8ddJ)	8aJ
=11	=11	=11	=11	=11	=11
8T	8Vb	8cL	(8EL	(16.ggLL	8gL
.	.	.	.	32eeJk)	.
8T	8vi/V	8cJ	8AJ	[8ccJ	(16eL
.	.	.	.	.	16f#JJ)
8D	8Ic/V	8eL	8GL	16.ccLL]	8gL
.	.	.	.	32cck	.
8D	8V7/V	16.BL	8GJ)	(16.dd	8fJ
.	.	32dJJk	.	32bJJk)	.
=12	=12	=12	=12	=12	=12
4.T	4.I/V	8C	8c	8ccL	8e
*	*	*v	*v	*	*
.	.	8r	(16.gL	8r
.	.	.	32eeJJk)	.
.	.	8r	([8eeL	8r
8T	8V7/V	8G 8B	24eeL]	8f
.	.	.	24dd)	.
.	.	.	24cc'JJ	.
=13	=13	=13	=13	=13
4.T	4.I/V	8C 8c	8ccL	8e
.	.	8r	(16.gL	8r
.	.	.	32eeJJk)	.
.	.	8r	([8eeL	8r
8T	8V7/V	8G 8B	24eeL]	8f
.	.	.	24dd)	.
.	.	.	24cc'JJ	.
=14	=14	=14	=14	=14
8T	8I/V	(8CL 8c	[8cc	(8eL
*	*	*	*v	*v
*-	*-	*-	*-
!!!COM: Beethoven
!!!OTL: Six Variations on an Original Theme
!!!Variation: Theme d
**function	**harm	**kern	**kern
*	*	*clefF4	*clefG2
*	*	*k[b-]	*k[b-]
*M2/4	*M2/4	*M2/4	*M2/4
*F:	*F:	*F:	*F:
*	*	*	*^
4.D	4.V7	8B-J 8c	4cc]	8eJ 8g
.	.	8AL 8c	.	8fL 8a
.	.	8GJ) 8c	8cc	8eJ) 8b-
*	*	*	*v	*v
=15	=15	=15	=15
*	*	*^	*
4T	4I	(4A 4c	8FL	(4f 4a 4cc
.	.	.	8FJ	.
8T	8IVc	8B-L 8d	8FL	8fL 8b- 8dd
8T	8I	8AJ) 8c	8FJ	8fJ) 8a 8cc
*	*	*v	*v	*
=16	=16	=16	=16
4T	4V7	4F 4G 4B- 4c 4e	4g 4b- 4cc 4ee
4T	4I	8F' 8A' 8c' 8f'	8a' 8cc' 8ff'
.	.	8r	16r
.	.	.	16cc
=17	=17	=17	=17
*	*	*^	*^
8T	8I	(4A	8FL	8.ccL	4f
8T	8V7d/IV	.	8E-J	.	.
.	.	.	.	(16ccJk	.
8P	8IVb	16B-LL	8DL	16ddLL	8fL
.	.	16A)	.	16cc)	.
16P	16V7b	(16G	16EL	(16b-	16cL
16P	16I	16FJJ)	16FJJ	16aJJ)	16cJJ
=18	=18	=18	=18	=18	=18
4D	4Ic	(4F	16.CLL	(4a	4c
.	.	.	32BBk	.	.
.	.	.	16.C	.	.
.	.	.	32BBJJk	.	.
16D	16V	16E)	16C	16gLL)	16c
*	*	*v	*v	*	*
*	*	*	*v	*v
*-	*-	*-	*-
!!!COM: Beethoven
!!!OTL: Six Variations on an Original Theme
!!!Variation: Theme e
**function	**harm	**kern	**kern
*	*	*clefF4	*clefG2
*M2/4	*M2/4	*M2/4	*M2/4
*F:	*F:	*F:	*F:
8.D	8.V	8.r	(16a'
.	.	.	16b-'
.	.	.	16b'JJ)
=19	=19	=19	=19
*	*	*	*^
.	.	.	16cQ	.
.	.	.	16fQ	.
.	.	.	16aQ	.
4T	4I	8FF'L	(4cc	8r
.	.	(8FJ 8A 8c	.	8f
8T	8IVc	8FL 8B- 8d	8ddL	8fL
8T	8I	8FJ) 8A 8c	8ccJ)	8fJ
*	*	*	*v	*v
=20	=20	=20	=20
4T	4viioD7	4F 4G 4B- 4d- 4e	4g 4b- 4dd- 4ee
4T	4I	8F' 8A' 8c' 8f'	8a' 8cc' 8ff'
.	.	8r	16r
.	.	.	16ff
=21	=21	=21	=21
*	*	*	*^
4.D	4.Ic	4c	(8aLL	16.ff
.	.	.	.	32ccJJk)
.	.	.	4f	4a
.	.	4C	.	.
8D	8V7	.	(16.eLL	16.b-
.	.	.	32B-JJk	32g
*	*	*	*v	*v
=22	=22	=22	=22
4.T	4.I	16FF' 16F'	16A') 16f'
.	.	16r	16r
*	*	*	*clefF4
.	.	16FFF' 16FF'	16A' 16c'
.	.	16r	16r
.	.	16FFF' 16FF'	16F' 16A'
.	.	16r	16r
=||	=||	=||	=||
*-	*-	*-	*-
!!!COM: Beethoven
!!!OTL: Six Variations on an Original Theme
!!!Variation: Variation 1 a
**function	**harm	**kern	**kern
*	*	*clefG2	*clefG2
*	*	*k[f#c#]	*k[f#c#]
*M2/4	*M2/4	*M2/4	*M2/4
*D:	*D:	*D:	*D:
*	*	*clefG2	*
8T	8	8r	(32g#LLL
.	.	.	32a)
.	.	.	(32g#
.	.	.	32aJJJ)
=23	=23	=23	=23
4T	4I	16dLL 16f#	[8aL
.	.	16d 16f#	.
.	.	16d 16f#	16aL]
.	.	16dJJ 16f#	32ddL
.	.	.	32cc#JJJ
8T	8IVc	16dLL 16g	(32a#LLL
.	.	.	32b
.	.	16d 16g	32dd
.	.	.	32bJJ)
8T	8I	16d 16f#	(32g#LL
.	.	.	32a
.	.	16dJJ 16f#	32dd
.	.	.	32aJJJ)
=24	=24	=24	=24
4T	4viioD7	16dLL 16e	(32gLLL
.	.	.	32b-
.	.	16d 16e 16g	32cc#
.	.	.	32eeJJ
.	.	16d 16e 16g 16b-	32ggLL
.	.	.	32ee
.	.	16dJJ 16e 16g 16b-	32gg)
.	.	.	32cc#JJJ
4T	4I	16dLL 16f# 16a	32eeLLL
.	.	.	32dd
.	.	16d 16f# 16a	32ff#
.	.	.	32eeJJ
.	.	16d 16f#	32ddLL
.	.	.	32cc#
.	.	16dJJ 16f#	32b
.	.	.	32aJJJ
=25	=25	=25	=25
4T	4Ib	16dLL 16f#	[8aL
*	*	*clefF4	*
.	.	16F# 16d	.
.	.	16F# 16d	64aLLL]
.	.	.	64b
.	.	.	64cc#
.	.	.	64dd
.	.	16F#JJ 16d	64ee
.	.	.	64ff#
.	.	.	64gg
.	.	.	64aaJJJJ
16T	16IV	16GLL 16d	64aa#LLLL
.	.	.	64bb
.	.	.	64ccc#
.	.	.	64bbJJJJ
16T	16Ib	16F# 16d	64gg#LLLL
.	.	.	64aa
.	.	.	64bb
.	.	.	64aaJJJJ
16T	16V7b	16C# 16A	64ff#LLLL
.	.	.	64gg
.	.	.	64aa
.	.	.	64ggJJJJ
16T	16I	16DJJ 16A	64ee#LLLL
.	.	.	64ff#
.	.	.	64gg
.	.	.	64ff#JJJJ
=26	=26	=26	=26
4D	4Ic	16AALL	[8aaL)
.	.	16A 16d	.
.	.	16A 16d	32aaLL]
.	.	.	64gg#L
.	.	.	64aa
.	.	16AJJ 16d	64bb
.	.	.	64aa
.	.	.	64gg
.	.	.	64ff#JJJJ
16D	16V	16A'LL 16c#'	32eeLLL
.	.	.	(64d#L
.	.	.	64eJJJJ)
*-	*-	*-	*-
!!!COM: Beethoven
!!!OTL: Six Variations on an Original Theme
!!!Variation: Variation 1 b
**function	**harm	**kern	**kern
*	*	*clefF4	*clefG2
*	*	*k[f#c#]	*k[f#c#]
*M2/4	*M2/4	*M2/4	*M2/4
*D:	*D:	*D:	*D:
8.D	8.V	16d'	32r
.	.	.	(64e#LLLL
.	.	.	64f#JJJJ)
.	.	16e'	32r
.	.	.	(64f#LLLL
.	.	.	64gJJJJ)
.	.	16e#'JJ	32r
.	.	.	(64gLLLL
.	.	.	64g#JJJJ)
=27	=27	=27	=27
4T	4I	16DLL	(8.aL
*	*	*clefG2	*
.	.	16d 16f#	.
.	.	16d 16f#	.
.	.	16dJJ 16f#	32ddLL
.	.	.	32cc#JJJ)
8T	8IVc	16dLL 16g	(32a#LLL
.	.	.	32b
.	.	16d 16g	32dd
.	.	.	32bJJ)
8T	8I	16d 16f#	(32g#LL
.	.	.	32a
.	.	16dJJ 16f#	32dd
.	.	.	32aJJJ)
=28	=28	=28	=28
4T	4viioD7	16dLL 16e	(80gLLLL
.	.	.	80a
.	.	.	80g
.	.	.	80f#
.	.	.	80gJJJJ)
.	.	16d 16e	(96b-LLLL
.	.	.	96cc#
.	.	.	96b-
.	.	.	96g
.	.	.	96b-
.	.	.	96cc#JJJJ)
.	.	16d 16e 16g	(96eeLLLL
.	.	.	96cc#
.	.	.	96b-
.	.	.	96cc#
.	.	.	96ee
.	.	.	96ggJJJJ)
.	.	16dJJ 16e 16g 16b-	32bb-LLL
.	.	.	64r
.	.	.	64cc#JJJJ
8T	8I	16dLL 16f# 16a	(80ddLLLL
.	.	.	80ee
.	.	.	80dd
.	.	.	80cc#
.	.	.	80ddJJJJ)
.	.	16d 16f# 16a	(112eeLLLL
.	.	.	112ff#
.	.	.	112gg
.	.	.	112aa
.	.	.	112bb
.	.	.	112ccc#
.	.	.	112dddJJJJ)
8P	8viiob/V	16B 16d 16g#	[8ddd
.	.	16BJJ 16d 16g#	.
=29	=29	=29	=29
4D	4Ic	16ALL 16d 16f# 16a	8ddd_
.	.	16A 16d 16f# 16a	.
.	.	16A 16d 16f# 16a	(80dddLLLL]
.	.	.	80ccc#
.	.	.	80bb
.	.	.	80aa
.	.	.	80ggJJJJ)
.	.	16AJJ 16d 16f# 16a	(96ff#LLLL
.	.	.	96ee
.	.	.	96dd
.	.	.	96cc#
.	.	.	96b
.	.	.	96aJJJJ)
4D	4V7	16ALL 16d 16e 16g	(96g#LLLL
.	.	.	96a
.	.	.	96b-
.	.	.	96b
.	.	.	96cc
.	.	.	96cc#JJJJ)
.	.	16A 16d 16e 16g	(112ddLLLL
.	.	.	112dd#
.	.	.	112ee
.	.	.	112ff
.	.	.	112ff#
.	.	.	112ggn
.	.	.	112gg#JJJJ)
.	.	16A 16c# 16e 16g	8aa
.	.	16AJJ 16c# 16e 16g	.
=30	=30	=30	=30
4T	4I	16d 16f#	32dd'LLL)
.	.	.	64r
.	.	.	(64aJ
.	.	16r	32f#)
.	.	.	64r
.	.	.	(64aJJJJ
*	*	*clefF4	*
.	.	16DD 16D	32dLLL)
*	*	*	*clefF4
.	.	.	64r
.	.	.	(64AJ
.	.	16r	32F#)
.	.	.	64r
.	.	.	(64AJJJJ
16T	16I	16DD	16D)
*-	*-	*-	*-
!!!COM: Beethoven
!!!OTL: Six Variations on an Original Theme
!!!Variation: Variation 1 c
**function	**harm	**kern	**kern
*	*	*clefF4	*clefG2
*	*	*k[f#c#]	*k[f#c#]
*M2/4	*M2/4	*M2/4	*M2/4
*D:	*D:	*D:	*D:
8.T	8.I	16r	(32d'LLL
.	.	.	32e'JJJ
.	.	8r	32f#'LLL
.	.	.	32g'
.	.	.	32a'
.	.	.	32a#'JJJ)
=31	=31	=31	=31
*	*	*^	*
2T	2IV	16dLL	(4G	8bL
.	.	16d	.	.
.	.	.	.	cc#q
.	.	16d	.	(32bLL
.	.	.	.	32a#
.	.	16dJJ	.	32b
.	.	.	.	32cc#JJJ
.	.	16dLL	8BL	32ddLLL
.	.	.	.	32cc#
.	.	16d	.	32dd
.	.	.	.	32cc#JJ
.	.	16d	8GJ)	32eeLL
.	.	.	.	32dd
.	.	16dJJ	.	32cc#
.	.	.	.	32bJJJ)
*	*	*v	*v	*
=32	=32	=32	=32
8T	8Ib	16F#'LL 16d'	32aLLL
.	.	.	64r
.	.	.	(64aJJ
.	.	16F#' 16d'	[16aaJJ)
8T	8V7c	16E' 16G' 16A' 16c#'	32.aaLLL]
.	.	.	(64cc#Jk
.	.	16E'JJ 16G' 16A' 16c#'	[16ccc#JJ)
8T	8I	16D'LL 16F#' 16A' 16d'	32.ccc#LLL]
.	.	.	(64ddJk
.	.	16D' 16F#' 16A' 16d'	[16dddJJ)
8D	8viioD7c/V	16D' 16F' 16G#' 16B'	32.dddLLL]
.	.	.	(64bk
.	.	16D'JJ 16F' 16G#' 16B'	32bb'JJJ)
.	.	.	32r
=33	=33	=33	=33
.	.	.	eeq
8D	8Vb	16C#LL 16E 16A 16c#	[16eeeLL)
.	.	16C# 16E 16A 16c#	32eeeL]
.	.	.	64dddL
.	.	.	64ccc#JJJ
8D	8V7c/V/V	16F# 16A 16B 16d#	64bbLLL
.	.	.	64aa
.	.	.	64gg#
.	.	.	64aa
.	.	16F#JJ 16A 16B 16d#	64gg#
.	.	.	64aa
.	.	.	64gg#
.	.	.	64aaJJJJ
8D	8Ic/V	16ELL 16A 16c# 16e	64gg#LLLL
.	.	.	64aa
.	.	.	64bb
.	.	.	64aa
.	.	16E 16A 16c# 16e	64ccc#
.	.	.	64bb
.	.	.	64ddd
.	.	.	64ccc#JJJ
8D	8V7/V	16E 16B 16d 16e	64eeeLLL
.	.	.	64ddd
.	.	.	64ccc#
.	.	.	64bb
.	.	16EJJ 16B 16d 16e	64ccc#
.	.	.	64bb
.	.	.	64aa
.	.	.	64gg#JJJJ
=34	=34	=34	=34
4.D	4.I/V	8A 8c# 8e	32aa
.	.	.	64r
.	.	.	(64eeLLLK
.	.	.	32ffJJJ)
.	.	.	64r
.	.	.	(64ff#LKKK
.	.	8r	32ggJJJ)
.	.	.	64r
.	.	.	(64gg#LLLK
.	.	.	32aaJJJ)
.	.	.	64r
.	.	.	(64aa#
*	*	*clefG2	*
.	.	16r	32bb)
.	.	.	64r
.	.	.	(64bb#LLLK
.	.	32.r	32ccc#JJJ)
.	.	.	64r
.	.	(64aLLKK	(64eeLKKK
8D	8V7/V	16eJJ) 16g#	32ddJJJ)
.	.	.	64r
.	.	.	(64ccc#LLLK
.	.	32.r	32bbJJJ)
.	.	.	64r
.	.	(64e 64g#	(64dd
=35	=35	=35	=35
4.D	4.I/V	32A) 32a	32cc#) 32aa
.	.	32r	64r
.	.	.	(64eLLLK
.	.	16r	32fJJJ)
.	.	.	64r
.	.	.	(64f#LKKK
.	.	8r	32gJJJ)
.	.	.	64r
.	.	.	(64g#LLLK
.	.	.	32aJJJ)
.	.	.	64r
.	.	.	(64a#
*	*	*clefF4	*
.	.	16r	32b)
.	.	.	64r
.	.	.	(64b#LLLK
.	.	32.r	32cc#JJJ)
.	.	.	64r
.	.	(64ALLKK	(64eLKKK
8D	8V7/V	16EJJ) 16G#	32dJJJ)
.	.	.	64r
.	.	.	(64cc#LLLK
.	.	32r	32bJJJ)
.	.	64r	64r
.	.	(64E 64G#	(64d
=36	=36	=36	=36
4D	4I/V	16AA) 16A	32c#)
.	.	.	64r
.	.	.	(64aLLLK
.	.	32r	32aa'JJJ)
.	.	64r	32r
.	.	(64ALLKK 64c#	.
.	.	16c#'JJ) 16e'	32r
.	.	.	64r
.	.	.	(64aLLLK
*	*	*clefG2	*
.	.	32r	32aa'JJJ)
.	.	64r	32r
.	.	(64c# 64e	.
4D	4V7	32e') 32g'	32r
.	.	32r	64r
.	.	.	(64aLLLK
.	.	32r	32aa'JJJ)
.	.	64r	32r
.	.	(64eLKKK 64g	.
.	.	64dJJJJ) 64f#	64r
.	.	64r	(64aLLLL
.	.	64r	64aa'JJJJ)
.	.	(64dLLLL 64f#	64r
.	.	64AJJJJ) 64e	64r
.	.	64r	(64aLLLL
.	.	64r	64aa'JJJJ)
.	.	(64A 64e	64r
=37	=37	=37	=37
*-	*-	*-	*-
!!!COM: Beethoven
!!!OTL: Six Variations on an Original Theme
!!!Variation: Variation 1 d
**function	**harm	**kern	**kern
*	*	*clefF4	*clefG2
*	*	*k[f#c#]	*k[f#c#]
*M2/4	*M2/4	*M2/4	*M2/4
*D:	*D:	*D:	*D:
=-37	=-37	=-37	=-37
4T	4I	16DLL) 16d	(8.aL
*	*	*clefG2	*
.	.	16d 16f#	.
.	.	16d 16f#	.
.	.	16dJJ 16f#	32ddLL
.	.	.	32cc#JJJ)
8T	8IVc	16dLL 16g	(32a#LLL
.	.	.	32b
.	.	16d 16g	32dd
.	.	.	32bJJ)
8T	8I	16d 16f#	(32g#LL
.	.	.	32a
.	.	16dJJ 16f#	32dd
.	.	.	32aJJJ)
=38	=38	=38	=38
4T	4viioD7	16dLL 16e	(80gLLLL
.	.	.	80a
.	.	.	80g
.	.	.	80f#
.	.	.	80gJJJJ)
.	.	16d 16e	(96b-LLLL
.	.	.	96cc#
.	.	.	96b-
.	.	.	96g
.	.	.	96b-
.	.	.	96cc#JJJJ)
.	.	16d 16e 16g	(96eeLLLL
.	.	.	96cc#
.	.	.	96b-
.	.	.	96cc#
.	.	.	96ee
.	.	.	96ggJJJJ)
.	.	16dJJ 16e 16g 16b-	32bb-LLL
.	.	.	64r
.	.	.	64cc#JJJJ
4T	4I	16dLL 16f# 16a	[8ddL
.	.	16d 16f# 16a	.
.	.	16d 16f#	32ddLL]
.	.	.	64ff#L
.	.	.	64ee
.	.	16dJJ 16f#	64dd
.	.	.	64cc#
.	.	.	64b
.	.	.	64aJJJJ
=39	=39	=39	=39
4T	4Ib	16dLL 16f#	64g#LLLL
.	.	.	64a
.	.	.	64b
.	.	.	64a
*	*	*clefF4	*
.	.	16F# 16d	64g#
.	.	.	64a
.	.	.	64b
.	.	.	64cc#JJJ
.	.	16F# 16d	64ddLLL
.	.	.	64ee
.	.	.	64ff#
.	.	.	64gg
.	.	16F#JJ 16d	64aa
.	.	.	64bb
.	.	.	64ccc#
.	.	.	64dddJJJJ
16T	16IV	16GLL 16d	64aa#LLLL
.	.	.	64bb
.	.	.	64ccc#
.	.	.	64ddd
16T	16Ib	16F# 16d	64gg#
.	.	.	64aa
.	.	.	64ccc#
.	.	.	64dddJJJ
16T	16V7b	16C# 16A	64ff#LLL
.	.	.	64gg
.	.	.	64ddd#
.	.	.	64eee
16T	16I	16DJJ 16A	64ee#
.	.	.	64ff#
.	.	.	64ccc#
.	.	.	64dddJJJJ
=40	=40	=40	=40
4D	4Ic	16AALL	64dddLLLK
.	.	.	[32.ff#
.	.	16A 16d	64ff#L]
.	.	.	64gg
.	.	.	64gg#
.	.	.	64aaJJJ
.	.	16A 16d	64gg#LLL
.	.	.	64aa
.	.	.	64gg#
.	.	.	64aa
.	.	16AJJ 16d	64bb
.	.	.	64aa
.	.	.	64gg
.	.	.	64ff#JJJJ
16D	16V	16ALL 16c#	16ee
*-	*-	*-	*-
!!!COM: Beethoven
!!!OTL: Six Variations on an Original Theme
!!!Variation: Variation 1 e
**function	**harm	**kern	**kern
*	*	*clefF4	*clefG2
*	*	*k[f#c#]	*k[f#c#]
*M2/4	*M2/4	*M2/4	*M2/4
*D:	*D:	*D:	*D:
8.D	8.V	32AAL	16r
.	.	32GGJ	.
.	.	16FF#	64r
.	.	.	64ALLLL
.	.	.	64B
.	.	.	64c#
.	.	16EEJJ	64d
.	.	.	64e
.	.	.	64f#
.	.	.	64gJJJJ
=41	=41	=41	=41
4T	4I	16DDLL	(96g#LLLL
.	.	.	96a
.	.	.	96g#JJJ
.	.	.	96aLLL
.	.	.	96g#
.	.	.	96aJJJ)
.	.	16D 16F# 16A	(96g#LLL
.	.	.	96a
.	.	.	96g#JJJ
.	.	.	96aLLL
.	.	.	96g#
.	.	.	96aJJJ)
.	.	16D 16F# 16A	(96g#LLL
.	.	.	96a
.	.	.	96g#JJJ
.	.	.	96aLLL
.	.	.	96g#
.	.	.	96aJJJ)
.	.	16DJJ 16F# 16A	(96g#LLL
.	.	.	96a
.	.	.	96g#JJJ
.	.	.	96aLLL
.	.	.	96dd
.	.	.	96cc#JJJJ)
8T	8IVc	16DLL 16G 16B	96a#LLLL
.	.	.	96b
.	.	.	96a#JJJ
.	.	.	96bLLL
.	.	.	96a#
.	.	.	96bJJJ
.	.	16D 16G 16B	96a#LLL
.	.	.	96b
.	.	.	96a#JJJ
.	.	.	96bLLL
.	.	.	96dd
.	.	.	96bJJJ
8T	8I	16D 16F# 16A	96g#LLL
.	.	.	96a
.	.	.	96g#JJJ
.	.	.	96aLLL
.	.	.	96g#
.	.	.	96aJJJ
.	.	16DJJ 16F# 16A	96g#LLL
.	.	.	96a
.	.	.	96g#JJJ
.	.	.	96aLLL
.	.	.	96dd
.	.	.	96aJJJJ
=42	=42	=42	=42
4T	4viioD7	16DLL 16E 16G 16B- 16c#	96gLLLL
.	.	.	96f#
.	.	.	96gJJJ
.	.	.	96b-LLL
.	.	.	96a
.	.	.	96b-JJJ
.	.	16D 16E 16G 16B- 16c#	96cc#LLL
.	.	.	96b#
.	.	.	96cc#JJJ
.	.	.	96eeLLL
.	.	.	96dd#
.	.	.	96eeJJJ
.	.	16D 16E 16G 16B- 16c#	96ggLLL
.	.	.	96ff#
.	.	.	96ggJJJ
.	.	.	96bb-LLL
.	.	.	96aa
.	.	.	96bb-JJJ
.	.	16DJJ 16E 16G 16B- 16c#	32ccc#'LL
.	.	.	32ccc#'JJJ
8T	8I	16DLL 16F# 16A 16d	[4ddd
.	.	16D 16F# 16A 16d	.
8P	8viioD7/V	16GG# 16BB 16D 16F	.
.	.	16GG#JJ 16BB 16D 16F	.
=43	=43	=43	=43
4D	4Ic	16AALL 16D 16F#	8ddd]
.	.	16AA 16D 16F#	.
.	.	16AA 16D 16F#	80dddLLLL
.	.	.	80ccc#
.	.	.	80bb
.	.	.	80aa
.	.	.	80ggJJJJ
.	.	16AAJJ 16D 16F#	96ff#LLLL
.	.	.	96ee
.	.	.	96dd
.	.	.	96cc#
.	.	.	96b
.	.	.	96aJJJJ
4D	4V7	16AALL 16D 16E 16G	96g#LLLL
.	.	.	96a
.	.	.	96b-
.	.	.	96b
.	.	.	96cc
.	.	.	96cc#JJJJ
.	.	16AA 16D 16E 16G	112ddLLLL
.	.	.	112dd#
.	.	.	112ee
.	.	.	112ff
.	.	.	112ff#
.	.	.	112ggn
.	.	.	112gg#JJJJ
.	.	16AA 16C# 16E 16G	8aa
.	.	16AAJJ 16C# 16E 16G	.
=44	=44	=44	=44
4T	4I	16D 16F#	32dd'LLL)
.	.	.	64r
.	.	.	(64aJ
.	.	16r	32f#)
.	.	.	64r
.	.	.	(64aJJJJ
.	.	16DD 16D	32dLLL)
*	*	*	*clefF4
.	.	.	64r
.	.	.	(64AJ
.	.	16r	32F#)
.	.	.	64r
.	.	.	(64AJJJJ
8T	8I	8DD	8D')
=||	=||	=||	=||
*-	*-	*-	*-
!!!COM: Beethoven
!!!OTL: Six Variations on an Original Theme
!!!Variation: Variation 2 a
**function	**harm	**kern	**kern
*	*	*clefF4	*clefF4
*	*	*k[b-e-]	*k[b-e-]
*M6/8	*M6/8	*M6/8	*M6/8
*B-:	*B-:	*B-:	*B-:
8T	8I	8r	8D' 8F'
=45	=45	=45	=45
4.T	4.I	8.BBB-'L 8.BB-'	8.D'L 8.F'
.	.	16BBB-'k 16BB-'	16D'k 16F'
.	.	8BBB-'J 8BB-'	8D'J 8F'
4T	4IV	8.EE-'L 8.BB-'	8.E-'L 8.G'
.	.	16EE-'k 16BB-'	16E-'k 16G'
8T	8I	8BBB-'J 8BB-'	8D'J 8F'
=46	=46	=46	=46
4.T	4.V7	4.FFF 4.FF	4.C 4.E- 4.F 4.A
4.T	4.I	8BBB- 8BB-	8D 8F 8B-
.	.	8r	8r
*	*	*	*clefG2
.	.	16BB-LL	16B-LL
.	.	16DJJ	16dJJ
=47	=47	=47	=47
*	*	*clefG2	*
2.T	2.I	16FLL	16fLL
.	.	16B-	16b-
.	.	16d	16dd
.	.	16f	16ff
.	.	16b-	16bb-
.	.	16aJJ	16aaJJ
.	.	16gLL	16ggLL
.	.	16f	16ff
.	.	16e-	16ee-
.	.	16d	16dd
.	.	16c	16cc
.	.	16B-JJ	16b-JJ
=48	=48	=48	=48
*	*	*clefF4	*
4.D	4.Ic	(4.F 4.B- 4.d	(4.f 4.b- 4.dd
4D	4V	8F') 8A' 8c'	8f') 8a' 8cc'
.	.	8r	8r
*-	*-	*-	*-
!!!COM: Beethoven
!!!OTL: Six Variations on an Original Theme
!!!Variation: Variation 2 b
**function	**harm	**kern	**kern
*	*	*clefF4	*clefF4
*	*	*k[b-e-]	*k[b-e-]
*M6/8	*M6/8	*M6/8	*M6/8
*B-:	*B-:	*B-:	*B-:
8T	8I	8BBB-' 8BB-'	8D' 8F'
=49	=49	=49	=49
4.T	4.I	8.BBB-'L 8.BB-'	8.D'L 8.F'
.	.	16BBB-'k 16BB-'	16D'k 16F'
.	.	8BBB-'J 8BB-'	8D'J 8F'
4T	4IV	8.EE-'L 8.BB-'	8.E-'L 8.G'
.	.	16EE-'k 16BB-'	16E-'k 16G'
8T	8I	8BBB-'J 8BB-'	8D'J 8F'
=50	=50	=50	=50
4.T	4.viioD7/vi	(4.FFF# 4.FF#	(4.C 4.E- 4.A
4T	4vi	8GGG) 8GG	8BB-) 8D 8B-
.	.	8r	8r
*	*	*	*clefG2
8P	8viio/V	(8EE	16aaLL
.	.	.	16bb-JJ
=51	=51	=51	=51
4.D	4.Ic	8FF)	16dddLL
.	.	.	16bb-
.	.	8r	16ff
.	.	.	16dd
.	.	8r	16b-
.	.	.	16fJJ
*	*	*	*clefF4
8.D	8.Ic	8r	16dLL
.	.	.	16B-
.	.	8r	16F
8.D	8.V7	.	16e-
.	.	8FF	16c
.	.	.	16AJJ
=52	=52	=52	=52
4.T	4.I	8BB-'L	16B-LL
.	.	.	16d
.	.	8FF'	16F
.	.	.	16B-
.	.	8DD'J	16D
.	.	.	16FJJ
4T	4I	8BBB-	8BB-
.	.	8r	8r
*-	*-	*-	*-
!!!COM: Beethoven
!!!OTL: Six Variations on an Original Theme
!!!Variation: Variation 2 c
**function	**harm	**kern	**kern
*	*	*clefF4	*clefG2
*	*	*k[b-e-]	*k[b-e-]
*M6/8	*M6/8	*M6/8	*M6/8
*B-:	*B-:	*B-:	*B-:
8T	8I	8r	(16fLL
.	.	.	16B-JJ
=53	=53	=53	=53
2.T	2.IV	16r	8g')
.	.	16E-LL	.
.	.	16G	16r
.	.	16B-JJ	16f#LL
.	.	8E-	16g
.	.	.	16aJJ
*	*	*clefG2	*
.	.	16r	8b-
.	.	16e-LL	.
.	.	16g	16r
.	.	16b-JJ	16aaLL
.	.	8e-	16bb-
.	.	.	16ggJJ
=54	=54	=54	=54
2.T	2.Ib	16r	16ff
.	.	16d	16r
.	.	16r	16bb-
.	.	16dd	16r
.	.	16r	16aa
.	.	16ee-	16r
.	.	16r	16bb-
.	.	16dd	16r
.	.	16r	16ccc
.	.	16a	16r
.	.	16r	16ddd
.	.	16b-	16r
=55	=55	=55	=55
4.P	4.Ic	16r	16ccc
.	.	16a	16r
.	.	16r	16fff
.	.	16A	16r
.	.	16r	16g#
.	.	16B	16r
4.P	4.V7/V	16r	16a
*	*	*clefF4	*
.	.	16c	16r
.	.	16r	16b-
.	.	16C	16r
.	.	16r	16c 16e 16g
.	.	16CC	16r
=56	=56	=56	=56
2.D	2.I/V	8FFL	8A 8f
.	.	16FJk	16r
.	.	16r	16a 16cc
.	.	16f	16r
.	.	16r	16cc 16aa
.	.	16F	16r
.	.	16r	16b 16gg#
.	.	16f	16r
.	.	16r	16cc 16aa
.	.	16F	16r
.	.	16r	16b- 16gg
=57	=57	=57	=57
2.D	2.I/V	16f	16r
.	.	16r	16a 16ff
.	.	16FF	16r
.	.	16r	16A 16c
.	.	16F	16r
.	.	16r	16c 16a
.	.	16FF	16r
.	.	16r	16B 16g#
.	.	16F	16r
.	.	16r	16c 16a
.	.	16FF	16r
.	.	16r	16B- 16g
=58	=58	=58	=58
4D	4I/V	16F	16r
.	.	16r	16A 16f
.	.	16E	16r
*	*	*	*clefF4
.	.	16r	16F
8D	8V7d	16E-	16r
.	.	16r	16F
*-	*-	*-	*-
!!!COM: Beethoven
!!!OTL: Six Variations on an Original Theme
!!!Variation: Variation 2 d
**function	**harm	**kern	**kern
*	*	*clefF4	*clefF4
*	*	*k[b-e-]	*k[b-e-]
*M6/8	*M6/8	*M6/8	*M6/8
*B-:	*B-:	*B-:	*B-:
4.T	4.Ib	16D	16r
.	.	16r	16F
.	.	16D-	16r
.	.	16r	16F
.	.	16C	16r
.	.	16r	16F
=59	=59	=59	=59
4.T	4.I	8.BBB-'L 8.BB-'	8.D'L 8.F'
.	.	16BBB-'k 16BB-'	16D'k 16F'
.	.	8BBB-'J 8BB-'	8D'J 8F'
4T	4IV	8.EE-'L 8.BB-'	8.E-'L 8.G'
.	.	16EE-'k 16BB-'	16E-'k 16G'
8T	8I	8BBB-'J 8BB-'	8D'J 8F'
=60	=60	=60	=60
4.T	4.V7	4.FFF 4.FF	4.C 4.E- 4.F 4.A
4.T	4.I	8BBB- 8BB-	8D 8F 8B-
.	.	8r	8r
*	*	*	*clefG2
.	.	16BB-LL	16B-LL
.	.	16DJJ	16dJJ
=61	=61	=61	=61
*	*	*clefG2	*
2.T	2.I	16FLL	16fLL
.	.	16B-	16b-
.	.	16d	16dd
.	.	16f	16ff
.	.	16b-	16bb-
.	.	16aJJ	16aaJJ
.	.	16gLL	16ggLL
.	.	16f	16ff
.	.	16e-	16ee-
.	.	16d	16dd
.	.	16c	16cc
.	.	16B-JJ	16b-JJ
=62	=62	=62	=62
*	*	*clefF4	*
4.D	4.Ic	(4.F 4.B- 4.d	(4.f 4.b- 4.dd
4D	4V	8F') 8A' 8c'	8f') 8a' 8cc'
.	.	8r	8r
*-	*-	*-	*-
!!!COM: Beethoven
!!!OTL: Six Variations on an Original Theme
!!!Variation: Variation 2 e
**function	**harm	**kern	**kern
*	*	*clefF4	*clefF4
*	*	*k[b-e-]	*k[b-e-]
*M6/8	*M6/8	*M6/8	*M6/8
*B-:	*B-:	*B-:	*B-:
8T	8I	8BBB-' 8BB-'	8D' 8F'
=63	=63	=63	=63
4.T	4.I	8.BBB-'L 8.BB-'	8.D'L 8.F'
.	.	16BBB-'k 16BB-'	16D'k 16F'
.	.	8BBB-'J 8BB-'	8D'J 8F'
4T	4iv	8.EE-'L 8.BB-'	8.E-'L 8.G-'
.	.	16EE-'k 16BB-'	16E-'k 16G-'
8T	8I	8BBB-'J 8BB-'	8D'J 8F'
=64	=64	=64	=64
4.D	4.viioD7c	(4.EE- 4.C	(4.G- 4.A
4.D	4.viioD7/V	8EE) 8D-	8G) 8B-
.	.	8r	8r
*	*	*	*clefG2
.	.	8r	16aaLL
.	.	.	16bb-JJ
=65	=65	=65	=65
4.D	4.Ic	16FFLL	16dddLL
.	.	16BB-	16bb-
.	.	16D	16ff
.	.	16F	16dd
.	.	16B-	16b-
.	.	16dJJ	16fJJ
8.D	8.Ic	8f	16dLL
.	.	.	16B-
.	.	8r	16F
8.D	8.V7	.	16e-
.	.	8FF	16c
.	.	.	16AJJ
=66	=66	=66	=66
*	*	*	*clefF4
2T	2I	8BB-'L	16B-LL
.	.	.	16d
.	.	8FF'	16F
.	.	.	16B-
.	.	8DD'J	16D
.	.	.	16FJJ
.	.	8BBB-	8BB-
8T	8I	8r	8r
=||	=||	=||	=||
*-	*-	*-	*-
!!!COM: Beethoven
!!!OTL: Six Variations on an Original Theme
!!!Variation: Variation 3 a
**function	**harm	**kern	**kern
*	*	*clefF4	*clefG2
*	*	*k[f#]	*k[f#]
*M4/4	*M4/4	*M4/4	*M4/4
*G:	*G:	*G:	*G:
4T	4I	(8dL	(8ddL
.	.	8c#J	8cc#J
=67	=67	=67	=67
2T	2I	8dL	8ddL
.	.	8G	8cc#
.	.	8B	8dd
.	.	8GJ	8ggJ
4T	4IVc	8cL	8eeL
.	.	8G	8gg
4T	4I	8B	8dd
.	.	8GJ	8ggJ
=68	=68	=68	=68
2T	2viio	8AL	8ccL
.	.	8G	8ccc
.	.	8c	8aa
.	.	8GJ	8ff#J
2T	2I	8BL	8ggL
.	.	8G	8dd
.	.	8g	8bb
.	.	8dJ	8ggJ
=69	=69	=69	=69
4.T	4.I	8BL	8ddL
.	.	8d	8gg
.	.	8G	8b
8T	8ii	8AJ	8ccJ
4.P	4.IV	8cL	8eeL
.	.	8B	8dd
.	.	8A	8cc
8P	8I	8GJ	8bJ
=70	=70	=70	=70
*	*	*^	*
2D	2Ic	8BL	[2D	8ddL
.	.	8A#	.	8cc#
.	.	8B	.	8dd
.	.	8GJ	.	8bJ
2D	2V	8F#L	8D]	8aL
*	*	*v	*v	*
*-	*-	*-	*-
!!!COM: Beethoven
!!!OTL: Six Variations on an Original Theme
!!!Variation: Variation 3 b
**function	**harm	**kern	**kern
*	*	*clefF4	*clefG2
*	*	*k[f#]	*k[f#]
*M4/4	*M4/4	*M4/4	*M4/4
*G:	*G:	*G:	*G:
4.D	4.V	8G	8b
.	.	8A	8cc
.	.	8A#J)	8cc#J)
=71	=71	=71	=71
.	.	.	eeq
2T	2I	(8BL	(8ddL)
.	.	8A#	8cc#
.	.	8B	8dd
.	.	8GJ	8ggJ
4T	4IVc	8cL	8eeL
.	.	8G	8gg
4T	4I	8B	8dd
.	.	8GJ	8ggJ
=72	=72	=72	=72
2T	2viioD7	8AL	8ccL
.	.	8G	8ccc
.	.	8c 8e-	8aa
.	.	8GJ	8ff#J
2T	2I	8BL 8d	8ggL
.	.	8G	8dd
*	*	*clefG2	*
.	.	8b	8ddd
.	.	8gJ	8bbJ
=73	=73	=73	=73
2.D	2.Ic	8dL	8ggL
.	.	8g	8bb
.	.	8B	8dd
.	.	8dJ	8ggJ
.	.	8GL	8bL
.	.	8B	8dd
4D	4V7	8D	8f#
.	.	8AJ	8ccJ
=74	=74	=74	=74
2.T	2.I	8GGL	8dL
.	.	8G	8b
.	.	8GG	8B 8d
.	.	8GJ	8gJ)
.	.	4GG)	4r
*-	*-	*-	*-
!!!COM: Beethoven
!!!OTL: Six Variations on an Original Theme
!!!Variation: Variation 3 c
**function	**harm	**kern	**kern
*	*	*clefF4	*clefG2
*	*	*k[f#]	*k[f#]
*M4/4	*M4/4	*M4/4	*M4/4
*G:	*G:	*G:	*G:
4T	4I	4r	(8BL 8d
.	.	.	8GJ) 8g
=75	=75	=75	=75
1T	1IVc	4r	(8cL 8e
.	.	.	8GJ) 8g
.	.	(8CL 8E	4r
.	.	8GGJ)	.
.	.	4r	(8ccL 8ee
.	.	.	8gJ) 8gg
.	.	(8cL 8e	4r
.	.	8GJ)	.
=76	=76	=76	=76
4T	4I	8r	(8bL 8dd
.	.	8G 8B	8g) 8gg
4T	4V7c	8r	(8cc 8dd
.	.	8A 8c	8f#J) 8ff#
4T	4Ib	8r	(8bL 8dd
.	.	8B 8d	8g) 8gg
4T	4V7d/V	8r	(8a 8cc#
.	.	8G 8A 8c#	8eJ) 8ee
=77	=77	=77	=77
4D	4Vb	8r	(8ddL 8ff#
.	.	8F# 8A 8d	8a) 8aa
4D	4V7c/V/V	8r	(8ee 8gg#
.	.	8BB 8B	8ddJ) 8ddd
4D	4Ic/V	8r	(8ff#L 8aa
.	.	8AA 8A	8dd) 8ddd
4D	4V7/V	8r	(8gg# 8aa
.	.	8AAA 8AA	8eeJ) 8ccc#
=78	=78	=78	=78
4D	4V	8DD 8D	(8ff#L 8aa
.	.	8r	8dd) 8ddd
*	*	*clefG2	*
4D	4Ic	(8f#L 8a	(8dd 8ff#
.	.	8AJ	8aaJ
4D	4V7m9/V	8eL 8g	8cc#L 8ee
.	.	8A	8bb-
4D	4V7/V	8e 8g	8cc# 8ee
.	.	8AJ	8aaJ
=79	=79	=79	=79
2D	2Ic/V	8dL 8f#	8ddL 8ff#
.	.	8A)	8aa)
*	*	*clefF4	*
.	.	(8F# 8A	(8f# 8a
.	.	8AAJ	8ddJ
2D	2V7/V	8EL 8G	8eL 8b-
.	.	8AA	8dd
.	.	8E 8G	8e 8a
.	.	8AAJ	8cc#J
=80	=80	=80	=80
4D	4I/V	8DL 8F#	8f#L 8a
.	.	8DDJ)	8dd)
*-	*-	*-	*-
!!!COM: Beethoven
!!!OTL: Six Variations on an Original Theme
!!!Variation: Variation 3 d
**function	**harm	**kern	**kern
*	*	*clefF4	*clefG2
*	*	*k[f#]	*k[f#]
*M4/4	*M4/4	*M4/4	*M4/4
*G:	*G:	*G:	*G:
4D	4V	8r	(8d 8f#
.	.	8d	8ddJ
2D	2V7d	8r	8eL 8g
.	.	8cn	8dd
.	.	8r	8f# 8a
.	.	8A	8ddJ)
=81	=81	=81	=81
*	*	*	*^
.	.	.	eeq	.
2T	2I	(8BL	(8ddL)	4g
.	.	8A#	8cc#	.
.	.	8B	8dd	4g
.	.	8GJ	8ggJ	.
4T	4IVc	8cL	8eeL	4g
.	.	8G	8gg	.
4T	4I	8B	8dd	4g
.	.	8GJ	8ggJ	.
*	*	*	*v	*v
=82	=82	=82	=82
2T	2viioD7	8AL	8ccL
.	.	8G	8ccc
.	.	8c 8e-	8aa
.	.	8GJ	8ff#J
2T	2I	8BL 8d	8ggL
.	.	8G	8dd
.	.	8g	8bb
.	.	8dJ	8ggJ
=83	=83	=83	=83
4.T	4.I	8BL	8ddL
.	.	8d	8gg
.	.	8G	8b
8P	8ii	8AJ	8ccJ
4.P	4.IV	8cL	8eeL
.	.	8B	8dd
.	.	8A	8cc
8P	8I	8GJ	8bJ
=84	=84	=84	=84
*	*	*^	*
2D	2Ic	8BL	[2D	8ddL
.	.	8A#	.	8cc#
.	.	8B	.	8dd
.	.	8GJ	.	8bJ
8D	8V	8F#L	8D]	8aL
*	*	*v	*v	*
*-	*-	*-	*-
!!!COM: Beethoven
!!!OTL: Six Variations on an Original Theme
!!!Variation: Variation 3 e
**function	**harm	**kern	**kern
*	*	*clefF4	*clefG2
*	*	*k[f#]	*k[f#]
*M4/4	*M4/4	*M4/4	*M4/4
*G:	*G:	*G:	*G:
4.D	4.V	8G	8b
.	.	8A	8cc
.	.	8A#J)	8cc#J)
=85	=85	=85	=85
*	*	*	*^
.	.	.	eeq	.
2T	2I	(8BnL	(8ddL)	4r
.	.	8A#	8cc#	.
.	.	8B 8d	8dd	4g
.	.	8GJ	8ggJ	.
4T	4IVc	8cL 8e	8eeL	4g
.	.	8G	8gg	.
4T	4I	8B 8d	8dd	4g
.	.	8GJ	8ggJ	.
=86	=86	=86	=86	=86
8T	8ii7	8AL 8c	8ccL	8g
*	*	*	*v	*v
*	*	*clefG2	*
*	*	*^	*
4.T	4.viioD7	8G	[4.G	8eee-
.	.	8a	.	8ccc
.	.	8f#J	.	8aaJ
2T	2I	8gL	4G]	8bbL
.	.	8d	.	8gg
.	.	8b	4r	8ddd
.	.	8gJ	.	8bbJ
*	*	*v	*v	*
=87	=87	=87	=87
*	*	*clefF4	*
2.D	2.Ic	8dL	8ggL
.	.	8g	8bb
.	.	8B	8dd
.	.	8dJ	8ggJ
.	.	8GL	8bL
.	.	8B	8dd
4D	4V7	8D	8f#
.	.	8AJ	8ccJ
=88	=88	=88	=88
2.T	2.I	8GGL	8dL
.	.	8G	8b
.	.	8GG	8B 8d
.	.	8GJ	8gJ)
.	.	4GG)	4r
=||	=||	=||	=||
*-	*-	*-	*-
!!!COM: Beethoven
!!!OTL: Six Variations on an Original Theme
!!!Variation: Variation 4 a
**function	**harm	**kern	**kern
*	*	*clefF4	*clefF4
*	*	*k[b-e-a-]	*k[b-e-a-]
*M3/4	*M3/4	*M3/4	*M3/4
*E-:	*E-:	*E-:	*E-:
4T	4I	(8.BB-L	(8.B-L
.	.	16GGJk	16GJk
=89	=89	=89	=89
2T	2I	8EE-'L)	8E-'L)
*	*	*	*clefG2
.	.	(8E-'J 8G'	(8e-'J 8b-'
.	.	8E-'L 8G'	8e-'L 8b-'
.	.	8E-'J) 8G'	8e-'J) 8b-'
8T	8IVc	(8E-L 8A-	(8e-L 8cc
8T	8I	8E-J) 8G	8e-J) 8b-
=90	=90	=90	=90
*	*	*	*^
4T	4V7	([4E- 4A- [4B-	(4dd	(4f
2T	2I	8E-]) 8G 8B-]	4.ee-)	8g)
.	.	8r	.	8r
.	.	4r	.	4r
.	.	.	(16ggLL	.
.	.	.	16ffJJ)	.
*	*	*	*v	*v
=91	=91	=91	=91
2T	2I	4r	(16ffLL
.	.	.	16ee-)
.	.	.	(16dd
.	.	.	16ee-JJ)
.	.	8r	(16ffLL
.	.	.	16ee-)
.	.	16EE-LL	16b- 16dd
.	.	16EEJJ	16a-JJ 16cc
8.P	8.ii	16FFLL	16a-LL 16cc
.	.	16GG	16g 16b-
.	.	16AA-	16f 16a-
16P	16viiom7/V	16AAJJ	16e-JJ 16g
=92	=92	=92	=92
4D	4Ic	16BB-LL	(8.gL 8.b-
.	.	16E-	.
.	.	16G	.
.	.	16B-JJ	16e-Jk) 16g
16D	16V	16BB-'LL	16d'LL 16f'
=93	=93	=93	=93
*-	*-	*-	*-
!!!COM: Beethoven
!!!OTL: Six Variations on an Original Theme
!!!Variation: Variation 4 b
**function	**harm	**kern	**kern
*	*	*clefF4	*clefF4
*	*	*k[b-e-a-]	*k[b-e-a-]
*M3/4	*M3/4	*M3/4	*M3/4
*E-:	*E-:	*E-:	*E-:
4..D	4..V	(16GG	(16G
.	.	16AA-	16A-
.	.	16AAJJ	16AJJ
.	.	Cq	cq
.	.	16BB-LL	16B-LL
.	.	16AA	16A
.	.	16BB-	16B-
.	.	16GGJJ	16GJJ
=93	=93	=93	=93
2T	2I	8EE-'L)	8E-'L)
*	*	*	*clefG2
.	.	(8E-'J 8G' 8B-'	(8e-'J 8b-'
.	.	8E-'L 8G' 8B-'	8e-'L 8b-'
.	.	8E-'J) 8G' 8B-'	8e-'J) 8b-'
8T	8IVc	(8E-L 8A- 8c	(8e-L 8cc
8T	8I	8E-J) 8G 8B-	8e-J) 8b-
=94	=94	=94	=94
4T	4V7	4E- 4F 4A- 4B- 4d	4f 4a- 4b- 4dd
2T	2I	8E- 8G 8B- 8e-	8ee-L
.	.	8r	16ff'L
.	.	.	16gg'JJ
.	.	4r	16aa-'LL
.	.	.	16bb-'
.	.	.	16ccc'
.	.	.	16ddd'JJ
=95	=95	=95	=95
4T	4I	4r	(16eee-LL
.	.	.	16ddd)
.	.	.	(16ccc
.	.	.	16bb-JJ)
*	*	*clefG2	*
4D	4Ic	8B- 8e- 8g	(16aaLL
.	.	.	16bb-)
.	.	8r	(16ccc
.	.	.	16bb-JJ)
4D	4V7	8B- 8d 8a-	(16bb-LL
.	.	.	16aa-)
.	.	8r	(16gg
.	.	.	16ffJJ)
=96	=96	=96	=96
2T	2I	([4e- 4a- [4b-	(4dd 4ff
.	.	8e-']) 8g' 8b-']	8ee-')
.	.	8r	8r
*-	*-	*-	*-
!!!COM: Beethoven
!!!OTL: Six Variations on an Original Theme
!!!Variation: Variation 4 c
**function	**harm	**kern	**kern
*	*	*clefF4	*clefG2
*	*	*k[b-e-a-]	*k[b-e-a-]
*E-:	*E-:	*E-:	*E-:
*M3/4	*M3/4	*M3/4	*M3/4
4T	4I	4r	(8.e-L
.	.	.	16ccJk)
=97	=97	=97	=97
*	*	*^	*
2.T	2.IV	8EE-L	(4.AAA-	(4.c 4.cc
.	.	8EE-J	.	.
.	.	8EE-L	.	.
.	.	8EE-J	8BBB-	8d 8dd
.	.	8EE-L	8CCL	8e-L 8ee-
.	.	8EE-J	8AAA-J	8cJ) 8cc
=98	=98	=98	=98	=98
2T	2Ib	8EE-L	4.GGG)	8B-'L 8b-'
.	.	8EE-J	.	8d'J 8dd'
.	.	8EE-L	.	4.e- 4.ee-
.	.	8EE-J	(8FFF#	.
8T	8Ib	8EE-L	8GGGL	.
8T	8viiom7/V	8EE-J	8AAAJ)	[8g [8gg
*	*	*v	*v	*
=99	=99	=99	=99
4.D	4.V	8BBB-'L 8DD'	8g] 8gg]
.	.	8CC'J 8EE-'	4f 4ff
.	.	8DD'L 8FF'	.
8D	8viioD7b/vii	8EE'J 8C#'	4B- 4b-
8D	8Vc	8FF'L 8D'	.
8D	8V7/V	8FF'J 8E-'	8A 8a
=100	=100	=100	=100
8T	8I/V	8BB- 8D	8B- 8b-
*	*	*^	*
4T	4V/V	8F	(8FL	8r
.	.	8FL	8E	8r
4.T	4.V7/V	8FJ	8E-J	4ff 4fff
.	.	8FL	8CL	.
.	.	8FJ	8AAJ)	8ff 8fff
=101	=101	=101	=101	=101
8T	8I/V	8F	8BB-	4dd 4ddd
4T	4V/V	8FF	(8FF	.
.	.	8FFL	8EEL	8r
*	*	*	*	*clefF4
4.T	4.V7/V	8FFJ	8EE-J	4F 4f
.	.	8FFL	8CCL	.
.	.	8FFJ	8AAAJ)	8F 8f
*	*	*v	*v	*
=102	=102	=102	=102
16T	16I/V	16BBB-'LL 16FF'	16D'LL 16d'
*-	*-	*-	*-
!!!COM: Beethoven
!!!OTL: Six Variations on an Original Theme
!!!Variation: Variation 4 d
**function	**harm	**kern	**kern
*	*	*clefF4	*clefG2
*	*	*k[b-e-a-]	*k[b-e-a-]
*M3/4	*M3/4	*M3/4	*M3/4
*E-:	*E-:	*E-:	*E-:
8.D	8.V	(16AA	(16A
.	.	16BB-	16B-
.	.	16AAJJ	16AJJ
2D	2V	16BB-LL	16B-LL
.	.	16AA	16A
.	.	16BB-	16B-
.	.	16AAJJ	16AJJ
.	.	.	cq
.	.	16BB-LL	16B-LL
.	.	16AA	16A
.	.	16BB-	16B-
.	.	16GGJJ	16GJJ
=103	=103	=103	=103
2T	2I	8EE-'L)	8E-'L)
*	*	*	*clefG2
.	.	(8E-'J 8G'	(8e-'J 8b-'
.	.	8E-'L 8G'	8e-'L 8b-'
.	.	8E-'J) 8G'	8e-'J) 8b-'
8T	8IVc	(8E-L 8A-	(8e-L 8cc
8T	8I	8E-J) 8G	8e-J) 8b-
=104	=104	=104	=104
*	*	*^	*^
4T	4viioD7	8.c-L	4E-	4dd	8.a-L
.	.	16A-Jk	.	.	16fJk
2T	2I	8B-	8E-	4.ee-	8g
*	*	*v	*v	*	*
.	.	8r	.	8r
.	.	4r	.	4r
.	.	.	(16ggLL	.
.	.	.	16ffJJ)	.
*	*	*	*v	*v
=105	=105	=105	=105
2T	2I	4r	(16ffLL
.	.	.	16ee-)
.	.	.	(16dd
.	.	.	16ee-JJ)
.	.	8r	(16ffLL
.	.	.	16ee-)
.	.	16EE-LL	16b- 16dd
.	.	16EEJJ	16a-JJ 16cc
8.P	8.ii	16FFLL	16a-LL 16cc
.	.	16GG	16g 16b-
.	.	16AA-	16f 16a-
16P	16viiom7/V	16AAJJ	16e-JJ 16g
=106	=106	=106	=106
4D	4Ic	16BB-LL	(8.gL 8.b-
.	.	16E-	.
.	.	16G	.
.	.	16B-JJ	16e-Jk) 16g
16D	16V	16BB-'LL	16d'LL 16f'
*-	*-	*-	*-
!!!COM: Beethoven
!!!OTL: Six Variations on an Original Theme
!!!Variation: Variation 4 e
**function	**harm	**kern	**kern
*	*	*clefF4	*clefF4
*	*	*k[b-e-a-]	*k[b-e-a-]
*M3/4	*M3/4	*M3/4	*M3/4
*E-:	*E-:	*E-:	*E-:
4..D	4..V	(16GG	(16G
.	.	16AA-	16A-
.	.	16AAJJ	16AJJ
.	.	Cq	cq
.	.	16BB-LL	16B-LL
.	.	16AA	16A
.	.	16BB-	16B-
.	.	16GGJJ	16GJJ
=107	=107	=107	=107
2T	2I	8EE-'L)	24E-'LL)
*	*	*	*clefG2
.	.	.	24b-
.	.	.	24bb-JJ
*	*	*clefG2	*
.	.	8e-J 8g	24r
.	.	.	24b-LL
.	.	.	24bb-JJ
.	.	8e-L 8g	24r
.	.	.	24b-LL
.	.	.	24bb-JJ
.	.	8e-J 8g	24r
.	.	.	24b-LL
.	.	.	24bb-JJ
8T	8IVc	8e-L 8a-	24r
.	.	.	24ccLL
.	.	.	24cccJJ
8T	8I	8e-J 8g	24r
.	.	.	24b-LL
.	.	.	24bb-JJ
=108	=108	=108	=108
4T	4viioD7	32e-LLL	8r
.	.	32f	.
.	.	32a-	.
.	.	32cc-JJJ	.
.	.	8r	(40ddLLL
.	.	.	40ff
.	.	.	40aa-
.	.	.	40ccc-
.	.	.	40dddJJJ)
2T	2I	24e-LL	8r
.	.	24g	.
.	.	24b-JJ	.
.	.	8r	32ee-LLL
.	.	.	32gg
.	.	.	32bb-
.	.	.	([32eee-JJJ
.	.	4r	16eee-LL]
.	.	.	16ddd)
.	.	.	(16ddd
.	.	.	16cccJJ)
=109	=109	=109	=109
2.D	2.V7	4r	(16cccLL
.	.	.	16bb)
.	.	.	(16bb
.	.	.	16bb-JJ)
.	.	8r	(16bb-LL
.	.	.	16aa)
.	.	8B- 8d	(16aa
.	.	.	16aa-JJ)
.	.	8B-L 8f	(16aa-LL
.	.	.	16gg)
.	.	8B-J 8a-	(16gg
.	.	.	16ffJJ)
=110	=110	=110	=110
2.T	2.I	(4e- 4a-	(4dd 4ff
.	.	8e-') 8g'	8ee-')
.	.	8r	8r
.	.	4r	4r
=||	=||	=||	=||
*-	*-	*-	*-
!!!COM: Beethoven
!!!OTL: Six Variations on an Original Theme
!!!Variation: Variation 5 a
**function	**harm	**kern	**kern
*	*	*clefF4	*clefF4
*	*	*k[b-e-a-]	*k[b-e-a-]
*M2/4	*M2/4	*M2/4	*M2/4
*c:	*c:	*c:	*c:
8T	8i	8r	16.CLL 16.E- 16.G
.	.	.	32CJJk 32E- 32G
=111	=111	=111	=111
4.T	4.i	8r	4.C 4.E- 4.G
.	.	16.CC'LL	.
.	.	32CC'JJk	.
.	.	8CC'	.
16.T	16.viioD7	8r	16.BBLL 16.D 16.F 16.A-
32T	32i	.	32CJJk 32E- 32G
=112	=112	=112	=112
4T	4viioD7	8r	(4D 4F 4A- 4B
.	.	16.CC'LL	.
.	.	32CC'JJk	.
4T	4i	8CC'L	8E-'L) 8G' 8c'
*	*	*	*clefG2
.	.	32CLL	32cLL
.	.	32E-	32e-
.	.	32G	32g
.	.	32cJJJ	32ccJJJ
=113	=113	=113	=113
4T	4i	32e-LLL	32ee-LLL
.	.	32c	32cc
.	.	32g	32gg
.	.	32e-JJ	32ee-JJ
.	.	32cLL	32ccLL
.	.	32e-	32ee-
.	.	32G	32g
.	.	32cJJJ	32ccJJJ
8.P	8.iv	32FLLL	32a-LLL
.	.	32A-	32f
.	.	32E-	32g
.	.	32GJJ	32e-JJ
.	.	32DLL	32fLL
.	.	32F	32d
16P	16i	32C	32e-
.	.	32E-JJJ	32cJJJ
=114	=114	=114	=114
*	*	*^	*
4D	4ic	32GGLLL	[4GG	(4A 4c 4e-
.	.	32F#	.	.
.	.	32G	.	.
.	.	32F#JJ	.	.
.	.	32GLL	.	.
.	.	32F#	.	.
.	.	32G	.	.
.	.	32F#JJJ	.	.
8D	8V	16GLL	16GGLL]	16B'LL) 16d'
*	*	*v	*v	*
.	.	16GGJJ 16GGGJJ	16gJJ 16gg
*-	*-	*-	*-
!!!COM: Beethoven
!!!OTL: Six Variations on an Original Theme
!!!Variation: Variation 5 b
**function	**harm	**kern	**kern
*	*	*clefF4	*clefF4
*	*	*k[b-e-a-]	*k[b-e-a-]
*M2/4	*M2/4	*M2/4	*M2/4
*c:	*c:	*c:	*c:
8T	8i	8r	16.CLL 16.E- 16.G
.	.	.	32CJJk 32E- 32G
=115	=115	=115	=115
4.T	4.i	8r	4.C 4.E- 4.G
.	.	16.CC'LL	.
.	.	32CC'JJk	.
.	.	8CC'	.
16.T	16.viioD7	8r	16.BBLL 16.D 16.F 16.A-
32T	32i	.	32CJJk 32E- 32G
=116	=116	=116	=116
4T	4viioD7	8r	(4D 4F 4A- 4B
.	.	16.CC'LL	.
.	.	32CC'JJk	.
8T	8i	8CC'L	8E-'L) 8G' 8c'
8P	8viioD7/V	8FFF#J 8FF#	8E-J 8A 8c
=117	=117	=117	=117
4.D	4.ic	16GGG'LL 16GG'	16E-' 16G' 16c'
*	*	*	*clefG2
.	.	32gL	32ggLLL
.	.	32e-JJ	32ee-JJ
.	.	32cLL	32ccLL
.	.	32e-	32ee-
.	.	32G	32g
.	.	32cJJJ	32ccJJJ
.	.	32E-LLL	32e-LLL
.	.	32G	32g
.	.	32C	32c
.	.	32E-J	32e-J
8D	8V7	16GG'	16G'JJ
.	.	16GG'JJ 16BB' 16D' 16G'	16b' 16dd' 16ff' 16gg' 16bb'
=118	=118	=118	=118
4.T	4.i	16C 16E- 16G 16c	16cc 16ee- 16gg 16ccc
.	.	16r	16r
.	.	16CC 16EE- 16GG 16C	16c 16e- 16g 16cc
.	.	16r	16r
*	*	*	*clefF4
.	.	16CC	16C
.	.	16r	16r
*-	*-	*-	*-
!!!COM: Beethoven
!!!OTL: Six Variations on an Original Theme
!!!Variation: Variation 5 c
**function	**harm	**kern	**kern
*	*	*clefF4	*clefG2
*	*	*k[b-e-a-]	*k[b-e-a-]
*M2/4	*M2/4	*M2/4	*M2/4
*c:	*c:	*c:	*c:
8T	8i	8r	16.gLL
.	.	.	32gJJk
=119	=119	=119	=119
*	*	*	*^
2T	2iv	32FFFLLL	8.a-L	8.cL 8.f
.	.	32FF	.	.
.	.	32AAA-	.	.
.	.	32AA-JJ	.	.
.	.	32CCLL	.	.
.	.	32C	.	.
.	.	32FF	[16bJk	[16cJk 16a-
.	.	32FJJJ	.	.
.	.	32AA-LLL	16bLK]	16cLL] 16f
.	.	32A-	.	.
.	.	32FF	8cc	([16c 16a-
.	.	32FJJ	.	.
.	.	32AA-LL	.	16c]) 16f
.	.	32A-	.	.
.	.	32FF	16a-Jk	16cJJ 16f
.	.	32FJJJ	.	.
*	*	*	*v	*v
=120	=120	=120	=120
8.T	8.i	32CCLLL	16c'LL 16e-' 16g'
.	.	32C	.
.	.	32DD	16B' 16f' 16g' 16b'
.	.	32DJJ	.
.	.	32EE-LL	16c' 16g' 16cc'
.	.	32E-	.
16T	16Vb	32BBB	16d'JJ 16g' 16dd'
.	.	32BBJJJ	.
16T	16i	32CCLLL	16e-'LL 16g' 16ee-'
.	.	32C	.
16T	16viioD7b/V	32AAA	16f#' 16cc' 16dd' 16ff#'
.	.	32AAJJ	.
16D	16ib/V	32BBB-LL	16g' 16dd' 16gg'
.	.	32BB-	.
16D	16V7/V/V	32AAA	16g'JJ 16cc#' 16gg'
.	.	32AAJJJ	.
=121	=121	=121	=121
16D	16ib/V	32BBB-LLL	16ggLK 16gLL 16dd
.	.	32BB-	.
*	*	*	*^
16D	16viioD7/V/V	32CC#	8gg	[16b- 16ee
.	.	32C#JJ	.	.
16D	16ic/V	32DDLL	.	16b-] 16dd
.	.	32D	.	.
16D	16Gn/V	32EE-	[16ggJk	[16b-JJ 16cc#
.	.	32E-JJJ	.	.
16D	16ic/V	32DDLLL	16ggLK]	16b-LL] 16dd
.	.	32D	.	.
16D	16Gn/V	32EE-	8gg	[16b- 16cc#
.	.	32E-JJ	.	.
16D	16ic/V	32DDLL	.	16b-] 16dd
.	.	32D	.	.
16D	16V/V	32D	16ff#Jk	16aJJ 16dd
.	.	32dJJJ	.	.
*	*	*	*v	*v
=122	=122	=122	=122
4.D	4.i/V	(8GGL 8G	32b-LLL 32dd 32gg
.	.	.	32dd
.	.	.	32gg
.	.	.	32bb-JJ
*	*	*^	*
.	.	16.dL)	8r	32dddLL
.	.	.	.	32bb-
.	.	.	.	32ccc
.	.	32dJJk	.	32aaJJJ
.	.	[4d	8r	32bb-LLL
.	.	.	.	32dd
.	.	.	.	32aa
.	.	.	.	32ccJJ
8D	8V/V	.	16.DLL	32ggLL
.	.	.	.	32b-
.	.	.	.	32ff#
.	.	.	32DJJk	32aJJJ
=123	=123	=123	=123	=123
4.D	4.i/V	8d]	8G	32b-LLL 32gg
.	.	.	.	32d
.	.	.	.	32g
.	.	.	.	32b-JJ
.	.	16.DLL	8r	32ddLL
.	.	.	.	32b-
.	.	.	.	32cc
.	.	32DJJk	.	32aJJJ
.	.	4D	8r	32b-LLL
.	.	.	.	32d
.	.	.	.	32a
.	.	.	.	32cJJ
8D	8V/V	.	16.DDLL	32gLL
.	.	.	.	32B-
.	.	.	.	32f#
.	.	.	(32DDJJk	32AJJJ
*	*	*v	*v	*
=124	=124	=124	=124
4.D	4.V7	32GGGLLL) 32GG	8BL 8d 8g
.	.	32GG	.
.	.	32BB	.
.	.	32DJJ	.
.	.	32FLL	16.ggL
.	.	32D	.
.	.	32E-	.
.	.	32CJJJ	32ggJJk
.	.	32DLLL	8gg
.	.	32BB	.
.	.	32FF	.
.	.	32DJJ	.
*-	*-	*-	*-
!!!COM: Beethoven
!!!OTL: Six Variations on an Original Theme
!!!Variation: Variation 5 d
**function	**harm	**kern	**kern
*	*	*clefF4	*clefF4
*	*	*k[b-e-a-]	*k[b-e-a-]
*M2/4	*M2/4	*M2/4	*M2/4
*c:	*c:	*c:	*c:
8D	8V	32EE-LL	16.GLL
.	.	32C	.
.	.	32DD	.
.	.	32BBJJJ	32GJJk
=125	=125	=125	=125
4.T	4.i	8CCL	4.C 4.E- 4.G
.	.	16.CC'L	.
.	.	32CC'JJk	.
.	.	8CC'	.
16.T	16.viioD7	8r	16.BBLL 16.D 16.F 16.A-
32T	32i	.	32CJJk 32E- 32G
=126	=126	=126	=126
4T	4viioD7	8r	(4D 4F 4A- 4B
.	.	16.CC'LL	.
.	.	32CC'JJk	.
4T	4i	8CC'L	8E-'L) 8G' 8c'
*	*	*	*clefG2
.	.	32CLL	32cLL
.	.	32E-	32e-
.	.	32G	32g
.	.	32cJJJ	32ccJJJ
=127	=127	=127	=127
4T	4i	32e-LLL	32ee-LLL
.	.	32c	32cc
.	.	32g	32gg
.	.	32e-JJ	32ee-JJ
.	.	32cLL	32ccLL
.	.	32e-	32ee-
.	.	32G	32g
.	.	32cJJJ	32ccJJJ
8.P	8.iv	32FLLL	32a-LLL
.	.	32A-	32f
.	.	32E-	32g
.	.	32GJJ	32e-JJ
.	.	32DLL	32fLL
.	.	32F	32d
16P	16i	32C	32e-
.	.	32E-JJJ	32cJJJ
=128	=128	=128	=128
*	*	*^	*
4D	4ic	32GGLLL	[4GG	(4A 4c 4e-
.	.	32F#	.	.
.	.	32G	.	.
.	.	32F#JJ	.	.
.	.	32GLL	.	.
.	.	32F#	.	.
.	.	32G	.	.
.	.	32F#JJJ	.	.
8D	8V	16GLL	16GGLL]	16B'LL) 16d'
*	*	*v	*v	*
.	.	16GGJJ 16GGGJJ	16gJJ 16gg
*-	*-	*-	*-
!!!COM: Beethoven
!!!OTL: Six Variations on an Original Theme
!!!Variation: Variation 5 e
**function	**harm	**kern	**kern
*	*	*clefF4	*clefF4
*	*	*k[b-e-a-]	*k[b-e-a-]
*M2/4	*M2/4	*M2/4	*M2/4
*c:	*c:	*c:	*c:
8T	8I	8r	16.CLL 16.E 16.G
.	.	.	32CJJk 32E 32G
=129	=129	=129	=129
4.T	4.i	8r	4.C 4.E 4.G
.	.	16.CC'LL	.
.	.	32CC'JJk	.
.	.	8CC'	.
16.T	16.viioD7	8r	16.BBLL 16.D 16.F 16.A-
32T	32i	.	32CJJk 32E 32G
=130	=130	=130	=130
4T	4viioD7	8r	(4D 4F 4A- 4B
.	.	16.CC'LL	.
.	.	32CC'JJk	.
8T	8I	8CC'	8EL) 8G 8c
8P	8Gn	8AAA- 8AA-	8CJ 8E- 8F# 8c
=131	=131	=131	=131
4.D	4.ic	16GGGLL 16GG	16C' 16E-' 16G' 16c'
*	*	*	*clefG2
.	.	32gL	32ggLLL
.	.	32e-JJ	32ee-JJ
.	.	32cLL	32ccLL
.	.	32e-	32ee-
.	.	32G	32g
.	.	32cJJJ	32ccJJJ
.	.	32E-LLL	32e-LLL
.	.	32G	32g
.	.	32C	32c
.	.	32E-JJJ	32e-JJJ
8D	8V7	16GG'LL	16G'LL
.	.	16GG'JJ 16BB' 16D' 16G'	16b'JJ 16dd' 16ff' 16gg' 16bb'
=132	=132	=132	=132
4T	4i	16C' 16E-' 16G' 16c'	16cc' 16ee-' 16gg' 16ccc'
.	.	16r	16r
.	.	16CC' 16EE-' 16GG' 16C'	16c' 16e-' 16g' 16cc'
.	.	16r	16r
*	*	*	*clefF4
8T	8i	16CC'	16C'
.	.	16r	16r
*-	*-	*-	*-
!!!COM: Beethoven
!!!OTL: Six Variations on an Original Theme
!!!Variation: Variation 5 f (transition to variation 6)
**function	**harm	**kern	**kern
*	*	*clefF4	*clefG2
*	*	*k[b-e-a-]	*k[b-e-a-]
*M2/4	*M2/4	*M2/4	*M2/4
*c:	*c:	*c:	*c:
8T	8I	16.cLL	8r
.	.	32cJJk	.
=133	=133	=133	=133
2T	2I	4.c	8r
.	.	.	16.eLL
.	.	.	32eJJk
.	.	.	[4e
.	.	16.cLL	.
.	.	32cJJk	.
=134	=134	=134	=134
2T	2I	4.c	8eL]
.	.	.	16.eL 16.g
.	.	.	32eJJk 32g
.	.	.	[4e [4g
.	.	16.cLL	.
.	.	32cJJk	.
=135	=135	=135	=135
2T	2I	8cL	8eL] 8g]
.	.	16.cL 16.e	16.gL 16.cc
.	.	32cJJk 32e	32gJJk 32cc
.	.	8cL 8e	8gL 8cc
*	*	*clefG2	*
.	.	16.cL 16.e 16.g	16.ccL 16.ee
.	.	32cJJk 32e 32g	32ccJJk 32ee
=136	=136	=136	=136
2T	2V7/iv	8cL 8e 8g	8ccL 8ee
.	.	16.cL 16.e 16.g 16.b-	16.ccL 16.ee 16.gg
.	.	32cJJk 32e 32g 32b-	32ccJJk 32ee 32gg
.	.	8cL 8e 8g 8b-	8ccL 8ee 8gg
.	.	16.cL 16.e 16.g 16.b-	16.ccL 16.ee 16.gg 16.ccc
.	.	32cJJk 32e 32g 32b-	32ccJJk 32ee 32gg 32ccc
=137	=137	=137	=137
2T	2V7/iv	8c 8e 8g 8b-	[2ccc
*	*	*clefF4	*
.	.	16.CC'LL	.
.	.	32CC'JJk	.
.	.	8CC'	.
.	.	16.ELL 16.G 16.B- 16.c	.
.	.	32EJJk 32G 32B- 32c	.
=138	=138	=138	=138
4.T	4.V7/iv	4.E 2G 2B- 2c;	4.ccc;]
=|	=|	=|	=|
*-	*-	*-	*-
!!!COM: Beethoven
!!!OTL: Six Variations on an Original Theme
!!!Variation: Variation 6 a
**function	**harm	**kern	**kern
*	*	*clefF4	*clefG2
*	*	*k[b-]	*k[b-]
*M6/8	*M6/8	*M6/8	*M6/8
*F:	*F:	*F:	*F:
8T	8I	8r	8cc 8ccc
=139	=139	=139	=139
*	*	*^	*
2.T	2.I	16ALL	8FL	4cc' 4ccc'
.	.	16c	.	.
.	.	16G#	8E	.
.	.	16c	.	.
.	.	16A	8FJ	8cc' 8ccc'
.	.	16cJJ	.	.
.	.	16ALL	8FL	8.ccL 8.ccc
.	.	16c	.	.
.	.	16G#	8E	.
.	.	16c	.	16ddk 16ddd
.	.	16A	8FJ	8ccJ 8ccc
.	.	16cJJ	.	.
=140	=140	=140	=140	=140
4.T	4.V7c	16B-LL	8GL	(4.ee 4.eee
.	.	16c	.	.
.	.	16A	8F#	.
.	.	16c	.	.
.	.	16B-	8GJ	.
.	.	16cJJ	.	.
*	*	*v	*v	*
4.T	4.Ib	16ALL	8ff') 8fff'
.	.	16c	.
.	.	16G#	8r
.	.	16c	.
.	.	16A	8cc' 8ccc'
.	.	16cJJ	.
=141	=141	=141	=141
4T	4I	16FLL	8.ccL 8.ccc
.	.	16c	.
.	.	16A	.
.	.	16c	16b'L 16bb'
8T	8V7d/IV	16E- 16F	16cc' 16ccc'
.	.	16AJJ	16cc#'JJ 16ccc#'
8P	8IVb	16DLL 16F	16ddLL 16ddd
.	.	16B-	16cc# 16ccc#
8P	8V7b	16E 16G	16dd 16ddd
.	.	16c	16cc 16ccc
8P	8I	16F 16A	16b- 16bb-
.	.	16cJJ	16aJJ 16aa
=142	=142	=142	=142
4.D	4.V7	16CLL	(8f# 8ff#
.	.	16c	.
.	.	16E	[4g) [4gg
.	.	16c	.
.	.	16G	.
.	.	16cJJ	.
8D	8V7	16BLL	8gL] 8gg]
.	.	16c	.
*-	*-	*-	*-
!!!COM: Beethoven
!!!OTL: Six Variations on an Original Theme
!!!Variation: Variation 6 b
**function	**harm	**kern	**kern
*	*	*clefF4	*clefG2
*	*	*k[b-]	*k[b-]
*M6/8	*M6/8	*M6/8	*M6/8
*F:	*F:	*F:	*F:
4D	4V7	16B-	(16gg#L
.	.	16c	16aa
.	.	16G	16bb-
.	.	16cJJ	16bbJJ)
=143	=143	=143	=143
*	*	*^	*
2.T	2.I	16ALL	8FL	4cc' 4ccc'
.	.	16c	.	.
.	.	16G#	8E	.
.	.	16c	.	.
.	.	16A	8FJ	8cc' 8ccc'
.	.	16cJJ	.	.
.	.	16ALL	8FL	8.ccL 8.ccc
.	.	16c	.	.
.	.	16G#	8E	.
.	.	16c	.	16ddk 16ddd
.	.	16A	8FJ	8ccJ 8ccc
.	.	16cJJ	.	.
=144	=144	=144	=144	=144
4.T	4.V7c	16B-LL	8GL	(4.ee 4.eee
.	.	16c	.	.
.	.	16A	8F#	.
.	.	16c	.	.
.	.	16B-	8GJ	.
.	.	16cJJ	.	.
*	*	*v	*v	*
4.T	4.Ib	16ALL	8ff') 8fff'
.	.	16c	.
.	.	16G#	8r
.	.	16c	.
.	.	16A	[8ff [8fff
.	.	16cJJ	.
=145	=145	=145	=145
4.D	4.Ic	16CLL	16ffLL] 16fff]
.	.	16c	16ee' 16eee'
.	.	16F 16A	16dd' 16ddd'
.	.	16c	16cc' 16ccc'
.	.	16C	16b-' 16bb-'
.	.	16cJJ	16a'JJ 16aa'
4.D	4.V7	16GLL 16B-	16cc'LL 16ccc'
.	.	16c	16b-' 16bb-'
.	.	16C	16a' 16aa'
.	.	16c	16g' 16gg'
.	.	16G 16B-	16f' 16ff'
.	.	16cJJ	16e'JJ 16ee'
=146	=146	=146	=146
2T	2I	16FLL	(8g 8gg
.	.	16c	.
.	.	16A	[4f) [4ff
.	.	16c	.
.	.	16F	.
.	.	16cJJ	.
.	.	16ALL	8f] 8ff]
.	.	16c	.
*-	*-	*-	*-
!!!COM: Beethoven
!!!OTL: Six Variations on an Original Theme
!!!Variation: Variation 6 c
**function	**harm	**kern	**kern
*	*	*clefF4	*clefG2
*	*	*k[b-]	*k[b-]
*M6/8	*M6/8	*M6/8	*M6/8
*F:	*F:	*F:	*F:
4T	4I	16F	16r
.	.	16c	(16fLL
.	.	16A	16cc
.	.	16cJJ	16aJJ
=147	=147	=147	=147
2.T	2.IV	16BB-LL	8dd')
.	.	16d	.
.	.	16B-	16r
.	.	16d	(16ffLL
.	.	16F	16ddd
.	.	16dJJ	16bb-JJ
.	.	16BB-LL	8fff')
.	.	16d	.
.	.	16B-	16r
.	.	16d	(16fLL
.	.	16F	16ff
.	.	16dJJ	16ddJJ
=148	=148	=148	=148
4T	4Ib	16AALL	8cc')
.	.	16c	.
.	.	16A	16r
.	.	16c	(16cccLL
8T	8V7c	16G 16B-	16eee
.	.	16cJJ	16cccJJ
4T	4I	16FLL	8fff')
.	.	16c	.
.	.	16A	16r
.	.	16c	(16aLL
8T	8viiob/V	16D	16ff
.	.	16BJJ	16ddJJ
=149	=149	=149	=149
4T	4Vb	16ELL	8gg')
.	.	16c	.
.	.	16G	16r
.	.	16c	(16ccLL
8P	8Lt/V	16A-	16ccc
.	.	16cJJ	16ff#JJ
4D	4Ic/V	16GLL	8gg')
.	.	16e	.
.	.	16c	16r
.	.	16e	(16gLL
8D	8V7/V	16G	16ff
.	.	16dJJ	16bJJ
=150	=150	=150	=150
4.T	4.I/V	16CLL	8cc')
.	.	16e	.
.	.	16c	8r
.	.	16e	.
.	.	16G	(32ggLLL
.	.	.	32eeeJJJ)
.	.	16eJJ	16r
4.T	4.V/V	16GGLL	(4eee
.	.	16d	.
.	.	16B	.
.	.	16d	.
.	.	16G	8ddd)
.	.	16dJJ	.
=151	=151	=151	=151
4.T	4.I/V	16CLL	8ccc
.	.	16e	.
.	.	16c	8r
.	.	16e	.
.	.	16G	(32gLLL
.	.	.	32eeJJJ)
.	.	16eJJ	16r
4.T	4.V/V	16GGLL	(4ee
.	.	16d	.
.	.	16B	.
.	.	16d	.
.	.	16G	8dd)
.	.	16dJJ	.
=152	=152	=152	=152
4T	4I/V	16CLL	8cc
.	.	16c	.
.	.	16B	8r
.	.	16c	.
*-	*-	*-	*-
!!!COM: Beethoven
!!!OTL: Six Variations on an Original Theme
!!!Variation: Variation 6 d
**function	**harm	**kern	**kern
*	*	*clefF4	*clefG2
*	*	*k[b-]	*k[b-]
*M6/8	*M6/8	*M6/8	*M6/8
*F:	*F:	*F:	*F:
.	.	.	bq
2D	2V7	16B-	8cc
.	.	16cJJ	.
.	.	.	bq
.	.	16ALL	8ccL
.	.	16c	.
.	.	.	bq
.	.	16A-	8cc
.	.	16c	.
.	.	.	bq
.	.	16G	8ccJ
.	.	16cJJ	.
=153	=153	=153	=153
*	*	*^	*
.	.	.	.	bq
2.T	2.I	16ALL	8FL	4cc
.	.	16c	.	.
.	.	16G#	8E	.
.	.	16c	.	.
.	.	.	.	bq
.	.	16A	8FJ	8cc
.	.	16cJJ	.	.
.	.	.	.	bq
.	.	16ALL	8FL	8.ccL
.	.	16c	.	.
.	.	16G#	8E	.
.	.	16c	.	16ddk
.	.	16A	8FJ	8ccJ
.	.	16cJJ	.	.
=154	=154	=154	=154	=154
.	.	.	.	ccq
4.T	4.V7c	16B-LL	8GL	(4.ee)
.	.	16c	.	.
.	.	16A	8F#	.
.	.	16c	.	.
.	.	16B-	8GJ	.
.	.	16cJJ	.	.
*	*	*v	*v	*
4.T	4.Ib	16ALL	8ff')
.	.	16c	.
.	.	16G#	8r
.	.	16c	.
.	.	16A	(16bLL
.	.	16cJJ	16ccJJ)
=155	=155	=155	=155
4T	4I	16FLL	(16bLL
.	.	16c	16cc)
.	.	16A	(16b
.	.	16c	16cc)
8T	8V7d/IV	16E- 16F	(16cc
.	.	16AJJ	16cc#JJ)
8P	8IVb	16DLL 16F	(16cc#LL
.	.	16B-	16dd)
8P	8V7b	16E 16G	(16dd
.	.	16c	16cc)
8P	8I	16F 16A	(16b-
.	.	16cJJ	16aJJ)
=156	=156	=156	=156
4.D	4.V7	16CLL	(16f#LL
.	.	16c	16g)
.	.	16E	(16ff#
.	.	16c	16gg)
.	.	16G	(16ff#
.	.	16cJJ	16ggJJ)
*-	*-	*-	*-
!!!COM: Beethoven
!!!OTL: Six Variations on an Original Theme
!!!Variation: Variation 6 e
**function	**harm	**kern	**kern
*	*	*clefF4	*clefG2
*	*	*k[b-]	*k[b-]
*M6/8	*M6/8	*M6/8	*M6/8
*F:	*F:	*F:	*F:
4.D	4.V7	16CLL	(16ff#LL
.	.	16c	16gg)
.	.	16B-	(16gg#
.	.	16c	16aa)
.	.	16G	(16bb-
.	.	16cJJ	16bbJJ)
=157	=157	=157	=157
*	*	*^	*
2.T	2.I	16ALL	8FL	4cc' 4ccc'
.	.	16c	.	.
.	.	16G#	8E	.
.	.	16c	.	.
.	.	16A	8FJ	8cc' 8ccc'
.	.	16cJJ	.	.
.	.	16ALL	8FL	8.ccL 8.ccc
.	.	16c	.	.
.	.	16G#	8E	.
.	.	16c	.	16ddk 16ddd
.	.	16A	8FJ	8ccJ 8ccc
.	.	16cJJ	.	.
=158	=158	=158	=158	=158
4.T	4.V7c	16B-LL	8GL	(4.ee 4.eee
.	.	16c	.	.
.	.	16A	8F#	.
.	.	16c	.	.
.	.	16B-	8GJ	.
.	.	16cJJ	.	.
*	*	*v	*v	*
4.T	4.Ib	16ALL	8ff') 8fff'
.	.	16c	.
.	.	16G#	8r
.	.	16c	.
.	.	16A	[8ff [8fff
.	.	16cJJ	.
=159	=159	=159	=159
4.D	4.Ic	16CLL	16ff'LL] 16fff']
.	.	16c	16ee' 16eee'
.	.	16F 16A	16dd' 16ddd'
.	.	16c	16cc' 16ccc'
.	.	16C	16b-' 16bb-'
.	.	16cJJ	16a'JJ 16aa'
4.D	4.V7	16GLL 16B-	16cc'LL 16ccc'
.	.	16c	16b-' 16bb-'
.	.	16C	16a' 16aa'
.	.	16c	16g' 16gg'
.	.	16G 16B-	16f' 16ff'
.	.	16cJJ	16e'JJ 16ee'
=160||	=160||	=160||	=160||
4T	4I	16FLL	8f 8ff
.	.	16c	.
.	.	16A	8r
.	.	16c	.
*-	*-	*-	*-
!!!COM: Beethoven
!!!OTL: Six Variations on an Original Theme
!!!Variation: Variation 6 g (coda)
**function	**harm	**kern	**kern
*	*	*clefF4	*clefG2
*	*	*k[b-]	*k[b-]
*M6/8	*M6/8	*M6/8	*M6/8
*F:	*F:	*F:	*F:
8T	8I	16F	(8f 8ff
.	.	16cJJ	.
4.T	4.IV	16BB-LL	4ff 4fff
.	.	16d	.
.	.	16B-	.
.	.	16d	.
.	.	16F	8dd) 8ddd
.	.	16dJJ	.
=161	=161	=161	=161
4.T	4.Ib	16AALL	(4cc 4ccc
.	.	16c	.
.	.	16A	.
.	.	16c	.
.	.	16F	8a) 8aa
.	.	16cJJ	.
4.T	4.V7	16CLL	8.gL 8.gg
.	.	16c	.
.	.	16E	.
.	.	16c	16ak 16aa
.	.	16G	8b-J 8bb-
.	.	16cJJ	.
=162	=162	=162	=162
4.T	4.I	16FFLL	(8aL 8aa
.	.	16c	.
.	.	16F	8f 8ff
.	.	16c	.
.	.	16A	8ffJ) 8fff
.	.	16cJJ	.
4.T	4.IV	16BB-LL	(4ff 4fff
.	.	16d	.
.	.	16B-	.
.	.	16d	.
.	.	16F	8dd) 8ddd
.	.	16dJJ	.
=163	=163	=163	=163
4.T	4.Ib	16AALL	(4cc 4ccc
.	.	16c	.
.	.	16A	.
.	.	16c	.
.	.	16F	8a) 8aa
.	.	16cJJ	.
4.T	4.V7	16CLL	(8gL 8gg
.	.	16c	.
.	.	16G	8cc) 8ccc
.	.	16c	.
.	.	16B-	8e'J 8ee'
.	.	16cJJ	.
=164	=164	=164	=164
4.T	4.I	16FFLL	4f 4ff
.	.	16c	.
.	.	16A	.
.	.	16c	.
.	.	16F	(8f 8ff
.	.	16cJJ	.
4.T	4.iv	16BB-LL	4ff 4fff
.	.	16d-	.
.	.	16B-	.
.	.	16d-	.
.	.	16F	8dd- 8ddd-
.	.	16d-JJ	.
=165	=165	=165	=165
4.T	4.ib	16AA-LL	4cc 4ccc
.	.	16c	.
.	.	16A-	.
.	.	16c	.
.	.	16F	8a-) 8aa-
.	.	16cJJ	.
4.T	4.V7	16CLL	8.gL 8.gg
.	.	16c	.
.	.	16E	.
.	.	16c	16a-k 16aa-
.	.	16G	8b-J 8bb-
.	.	16cJJ	.
=166	=166	=166	=166
4.T	4.i	16FFLL	(8a-L 8aa-
.	.	16c	.
.	.	16F	8f 8ff
.	.	16A-	.
.	.	16F	8ffJ) 8fff
.	.	16A-JJ	.
*	*	*^	*
4.P	4.-VI	(16FLL	4.D-	(4ff 4fff
.	.	16A-	.	.
.	.	16F	.	.
.	.	16A-	.	.
.	.	16F	.	8dd-) 8ddd-
.	.	16A-JJ)	.	.
=167	=167	=167	=167	=167
4.P	4.-VI	(16FLL	4.D-	(4dd- 4ddd-
.	.	16A-	.	.
.	.	16F	.	.
.	.	16A-	.	.
.	.	16F	.	8cc) 8ccc
.	.	16A-JJ)	.	.
4.P	4.Gn	16FLL	8D-L	(4cc 4ccc
.	.	16A-	.	.
.	.	16F	8D-	.
.	.	16G	.	.
.	.	16F	8D-J	8b) 8bb
.	.	16GJJ	.	.
=168	=168	=168	=168	=168
4.D	4.V	16ELL	8C	8cc 8ccc
.	.	16G	.	.
.	.	16E	8r	8r
.	.	16G	.	.
.	.	16E	8C	8c 8cc
.	.	16GJJ	.	.
4.D	4.Gn	16FLL	8D-	(4c 4cc
.	.	16G	.	.
.	.	16F	8r	.
.	.	16G	.	.
.	.	16F	8D-	8B) 8b
.	.	16GJJ	.	.
=169	=169	=169	=169	=169
4.D	4.V	16ELL	8C	8c 8cc
.	.	16G	.	.
.	.	16E	8r	8r
.	.	16G	.	.
.	.	16E	8C	8c 8cc
.	.	16GJJ	.	.
4.D	4.Gn	16FLL	8D-	(4c 4cc
.	.	16G	.	.
.	.	16F	8r	.
.	.	16G	.	.
.	.	16F	8D-	8B) 8b
.	.	16GJJ	.	.
*	*	*v	*v	*
=170	=170	=170	=170
4.D	4.V	4C 4E	16cLL 16cc
.	.	.	16g
.	.	.	16e
.	.	.	16cc
.	.	8r	16a-
.	.	.	16fJJ
4.D	4.ic	4C	16ccLL
.	.	.	16g
.	.	.	16e
.	.	.	16a-
.	.	8r	16f
.	.	.	16cJJ
=171	=171	=171	=171
4.D	4.V	4C	16gLL
.	.	.	16e
.	.	.	16c
.	.	.	16f
.	.	8r	16c
.	.	.	16A-JJ
*	*	*	*clefF4
4.D	4.ic	4CC	16eLL
.	.	.	16c
.	.	.	16G
.	.	.	16c
.	.	8r	16A-
.	.	.	16FJJ
=172	=172	=172	=172
4.D	4.V	4CC	16cLL
.	.	.	16G
.	.	.	16E
.	.	.	16c
.	.	8r	16A-
.	.	.	16FJJ
4.D	4.ic	4CC	16cLL
.	.	.	16G
.	.	.	16E
.	.	.	16c
.	.	8r	16A-
.	.	.	16FJJ
=173	=173	=173	=173
2.D	2.V	8CC	(16ELL 16G 16c
.	.	.	16Cn
.	.	8r	16BB
.	.	.	16C
.	.	8GG'	16E
.	.	.	16CJJ)
.	.	8FF'L	16GLL
.	.	.	16C
.	.	8EE'	16A
.	.	.	16C
.	.	8DD'J	16B
.	.	.	16CJJ
=174	=174	=174	=174
*	*	*	*clefG2
2.D	2.V	8CC	16cLL
.	.	.	(16cn
.	.	8r	16B
.	.	.	16c
.	.	8GG'	16e
.	.	.	16cJJ)
.	.	8FF'L	16gLL
.	.	.	16c
.	.	8EE'	16a
.	.	.	16c
.	.	8DD'J	16b
.	.	.	16cJJ
=175	=175	=175	=175
2.D	2.V	8CC	16ccLL
.	.	.	(16cc
.	.	8r	16b
.	.	.	16cc
.	.	8GG'	16ee
.	.	.	16ccJJ)
.	.	8FF'L	16ggLL
.	.	.	16cc
.	.	8EE'	16aa
.	.	.	16cc
.	.	8DD'J	16bb
.	.	.	16ccJJ
=176	=176	=176	=176
.	.	.	bbq
2.D	2.V	4CC	4.ccc
.	.	8r	.
.	.	.	bq
.	.	4.r	4.cc
=177	=177	=177	=177
.	.	.	Bq
2.D	2.V	2.r;	2.c
.	.	.	8BQ
.	.	.	8cQ
.	.	.	8dQ
.	.	.	8cQ
.	.	.	8eQ
.	.	.	8dQ
.	.	.	8fQ
.	.	.	8eQ
.	.	.	8gQ
.	.	.	8fQ
.	.	.	8aQ
.	.	.	8gQ
.	.	.	8b-Q
.	.	.	8aQ
.	.	.	4ccQ
.	.	.	4bQ
.	.	.	4ddQ
.	.	.	4ccQ
=178	=178	=178	=178
*-	*-	*-	*-
!!!COM: Beethoven
!!!OTL: Six Variations on an Original Theme
!!!Variation: Variation 6 a2 (coda)
**function	**harm	**kern	**kern
*	*	*clefF4	*clefG2
*	*	*k[b-]	*k[b-]
*M2/4	*M2/4	*M2/4	*M2/4
*F:	*F:	*F:	*F:
=178-	=178-	=178-	=178-
*	*	*^	*
4T	4I	(4A 4c	8FL	(4f 4a 4cc
.	.	.	8FJ	.
8T	8IVc	8B-L 8d	8FL	8fL 8b- 8dd
8T	8I	8AJ) 8c	8FJ	8fJ) 8a 8cc
*	*	*v	*v	*
=179	=179	=179	=179
4T	4V7	4F 4G 4B- 4c 4e	4g 4b- 4cc 4ee
4T	4I	8F' 8A' 8c' 8f'	8a' 8cc' 8ff'
.	.	8r	16r
.	.	.	16cc
=180	=180	=180	=180
*	*	*	*^
4T	4I	4F 4A	8ccL	4f
.	.	.	ddq	.
.	.	.	(32ccLL	.
.	.	.	32b	.
.	.	.	32cc	.
.	.	.	32cc#JJJ)	.
16P	16IV	(16BB-LL 16F	(32eeLLL	16b-LL
.	.	.	32dd)	.
16P	16Ic	16C 16F	(32dd	16a
.	.	.	32ccJJ)	.
16P	16ii7c	16D 16F	(32ccLL	16g
.	.	.	32b-)	.
16P	16viiom7/V	16BBJJ) 16F	(32b-	16fJJ
.	.	.	32aJJJ)	.
*	*	*	*v	*v
=181	=181	=181	=181
*	*	*^	*
4D	4Ic	(8FL	[4C	8fL 8a
.	.	16.AL	.	(16.cL 16.cc
.	.	32FJJk)	.	32fJJk) 32a
32D	32V	32c	32C]	32eLLL 32g
*	*	*v	*v	*
*-	*-	*-	*-
!!!COM: Beethoven
!!!OTL: Six Variations on an Original Theme
!!!Variation: Variation 6 b2 (coda)
**function	**harm	**kern	**kern
*	*	*clefF4	*clefG2
*	*	*k[b-]	*k[b-]
*M2/4	*M2/4	*M2/4	*M2/4
*F:	*F:	*F:	*F:
16.D	16.V	16.r	64cL
.	.	.	64B
.	.	.	64d
.	.	.	64c
.	.	.	64e
.	.	.	64dJJJ
8D	8V	8r	136f
.	.	.	136e
.	.	.	136g
.	.	.	136f
.	.	.	136a
.	.	.	136g
.	.	.	136b-
.	.	.	136a
.	.	.	136cc
.	.	.	136b-
.	.	.	136dd
.	.	.	136cc
.	.	.	136ee
.	.	.	136dd
.	.	.	136ff
.	.	.	136ee
.	.	.	136gg
=182	=182	=182	=182
4T	4I	(4A 4c	2ff
8T	8IVc	8B-L 8d	.
8T	8I	8AJ) 8c	.
=183	=183	=183	=183
.	.	.	bbq
4T	4V7c	4G 4B- 4e	2ccc
4T	4Ib	8.AL 8.c 8.f	.
.	.	16AJk 16f	.
=184	=184	=184	=184
8T	8Ib	16.ALL 16.f	[8cccL
.	.	32AJJk 32c	.
4T	4I	4F 4A	128cccLLLL]
.	.	.	128bb-
.	.	.	128aa
.	.	.	128gg
.	.	.	128ff
.	.	.	128ee
.	.	.	128dd
.	.	.	128cc
.	.	.	128b-
.	.	.	128a
.	.	.	128g
.	.	.	128f
.	.	.	128e
.	.	.	128d
.	.	.	128c
.	.	.	128B
.	.	.	96dLLLL
.	.	.	96c
.	.	.	96BJJJ
.	.	.	96cLLL
.	.	.	96d
.	.	.	96eJJJ
.	.	.	96fLLL
.	.	.	96g
.	.	.	96aJJJ
.	.	.	96b-LLL
.	.	.	96cc
.	.	.	96ddJJJ
8T	8viiob	16.GLL 16.B-	96eeLLL
.	.	.	96ff
.	.	.	96ggJJJ
.	.	.	96aaLLL
.	.	.	96bb-
.	.	.	96bbJJJ
.	.	.	96cccLLL
.	.	.	96ccc#
.	.	.	96dddJJJ
.	.	32BB-JJk 32G	64ddd#LLL
.	.	.	64eeeJJJJ
=185	=185	=185	=185
2T	2I	16AA 16F	96fffLLLL
.	.	.	96ccc
.	.	.	96aaJJJ
.	.	.	96ffLLL
.	.	.	96cc
.	.	.	96aJJJ
.	.	16r	96ffLLL
.	.	.	96cc
.	.	.	96aJJJ
.	.	.	96fLLL
.	.	.	96c
.	.	.	96AJJJ
.	.	16FFF 16FF	96fLLL
.	.	.	96c
.	.	.	96AJJJ
.	.	.	96FLLL
.	.	.	96C
.	.	.	96AAJJJ
.	.	16r	96FLLL
.	.	.	96C
.	.	.	96AAJJJ
.	.	.	96FFLLL
.	.	.	96CC
.	.	.	96AAAJJJJ
.	.	4r	96FFFLLLL
.	.	.	96FF
.	.	.	96GGJJJ
.	.	.	96AALLL
.	.	.	96BB-
.	.	.	96CJJJ
.	.	.	96DLLL
.	.	.	96E
.	.	.	96FJJJ
.	.	.	96GLLL
.	.	.	96A
.	.	.	96B-JJJ
.	.	.	96cLLL
.	.	.	96d
.	.	.	96eJJJ
.	.	.	96fLLL
.	.	.	96g
.	.	.	96aJJJ
.	.	.	32b-LL
.	.	.	32ccJJJ
=186	=186	=186	=186
*	*	*	*^
2T	2IVc	96r	[4b- [4dd	16r
.	.	96FFFLLLL	.	.
.	.	96BBB-JJJ	.	.
.	.	96DDLLL	.	.
.	.	96BBB-	.	.
.	.	96DDJJJ	.	.
.	.	96FFLLL	.	16fLL
.	.	96DD	.	.
.	.	96FFJJJ	.	.
.	.	96BB-LLL	.	.
.	.	96FF	.	.
.	.	96BB-JJJ	.	.
.	.	96DLLL	.	16f
.	.	96BB-	.	.
.	.	96DJJJ	.	.
.	.	96FLLL	.	.
.	.	96D	.	.
.	.	96FJJJ	.	.
.	.	96B-LLL	.	16fJJ
.	.	96F	.	.
.	.	96B-JJJ	.	.
.	.	96dLLL	.	.
.	.	96B-	.	.
.	.	96dJJJJ	.	.
*	*	*	*v	*v
.	.	16f	16b-LL] 16dd]
.	.	16r	(16cc# 16ee 16fLL
.	.	8r	16dd 16ff 16f
.	.	.	16b-JJ 16dd 16fJJ)
=187	=187	=187	=187
8T	8I	96r	16.fLL 16.a 16.cc
.	.	96FFLLLL	.
.	.	96AAJJJ	.
.	.	96CLLL	.
.	.	96AA	.
.	.	96CJJJ	.
.	.	16FJJ	.
.	.	.	32fk 32a 32cc
8T	8Vc	96r	16.e 16.b- 16.cc 16.ee
.	.	96GGGLLLL	.
.	.	96BBB-JJJ	.
.	.	96EELLL	.
.	.	96BBB-	.
.	.	96EEJJJ	.
.	.	16GGJJ	.
.	.	.	32eJJk 32b- 32cc 32ee
8T	8Ib	96r	16.fLL 16.cc 16.ff
.	.	96AALLLL	.
.	.	96CJJJ	.
.	.	96FLLL	.
.	.	96C	.
.	.	96FJJJ	.
.	.	16AJJ	.
.	.	.	32fk 32cc 32ff
8T	8vi7b	96r	16.d 16.a 16.cc 16.dd
.	.	96FFFLLLL	.
.	.	96AAAJJJ	.
.	.	96DDLLL	.
.	.	96AAA	.
.	.	96DDJJJ	.
.	.	16FFJJ	.
.	.	.	32dJJk 32a 32cc 32dd
=188	=188	=188	=188
8D	8Vb	96r	16.gLL 16.cc 16.gg
.	.	96EELLLL	.
.	.	96GGJJJ	.
.	.	96CLLL	.
.	.	96GG	.
.	.	96CJJJ	.
.	.	16EJJ	.
.	.	.	32ck 32cc
8D	8Gn/V	96r	16.c 16.e- 16.f# 16.cc
.	.	96AAA-LLLL	.
.	.	96CCJJJ	.
.	.	96EE-LLL	.
.	.	96CC	.
.	.	96EE-JJJ	.
.	.	16AA-JJ	.
.	.	.	32cJJk 32e- 32f# 32cc
8D	8Ic/V	96r	16.cLL 16.e 16.g 16.cc
.	.	96GGLLLL	.
.	.	96CJJJ	.
.	.	96ELLL	.
.	.	96C	.
.	.	96EJJJ	.
.	.	16GJJ	.
.	.	.	32ck 32e 32g 32cc
8D	8V7/V	96r	16.B 16.d 16.f 16.g 16.b
.	.	96GGGLLLL	.
.	.	96BBBJJJ	.
.	.	96DDLLL	.
.	.	96BBB	.
.	.	96DDJJJ	.
.	.	16GGJJ	.
.	.	.	32BJJk 32d 32f 32g 32b
=189	=189	=189	=189
4.D	4.I/V	96r	16c 16e 16g 16cc
.	.	96CCLLLL	.
.	.	96EEJJJ	.
.	.	96GGLLL	.
.	.	96EE	.
.	.	96GGJJJ	.
.	.	96CLLL	16r
.	.	96GG	.
.	.	96CJJJ	.
.	.	96ELLL	.
.	.	96C	.
.	.	96EJJJ	.
.	.	96GLLL	8r
.	.	96E	.
.	.	96GJJJ	.
.	.	96cLLL	.
.	.	96G	.
.	.	96cJJJ	.
.	.	96eLLL	.
.	.	96c	.
.	.	96eJJJ	.
.	.	96gLLL	.
.	.	96e	.
.	.	96gJJJJ	.
*	*	*clefG2	*
.	.	16cc	16r
.	.	16r	16eeLL 16gg 16eee
*	*	*clefF4	*
16D	16Ic/V	[8G	(16ee 16gg 16eee
16D	16V7/V	.	16ddJJ 16ff 16ddd
=190	=190	=190	=190
4.D	4.I/V	96GLLLL]	16cc) 16ee 16ccc
.	.	96CC	.
.	.	96EEJJJ	.
.	.	96GGLLL	.
.	.	96EE	.
.	.	96GGJJJ	.
.	.	96CLLL	16r
.	.	96GG	.
.	.	96CJJJ	.
.	.	96ELLL	.
.	.	96C	.
.	.	96EJJJ	.
.	.	96GLLL	8r
.	.	96E	.
.	.	96GJJJ	.
.	.	96cLLL	.
.	.	96G	.
.	.	96cJJJ	.
.	.	96eLLL	.
.	.	96c	.
.	.	96eJJJ	.
.	.	96gLLL	.
.	.	96e	.
.	.	96gJJJJ	.
*	*	*clefG2	*
.	.	16cc	16r
.	.	16r	16eLL 16g 16ee
*	*	*clefF4	*
16D	16Ic/V	[8G	(16e 16g 16ee
16D	16V7/V	.	16dJJ 16f 16dd
=191	=191	=191	=191
4D	4I/V	96GLLLL]	16c) 16e 16cc
.	.	96CC	.
.	.	96EEJJJ	.
.	.	96GGLLL	.
.	.	96EE	.
.	.	96GGJJJ	.
.	.	96CLLL	16r
.	.	96GG	.
.	.	96CJJJ	.
.	.	96ELLL	.
.	.	96C	.
.	.	96EJJJ	.
.	.	96GLLL	8r
.	.	96E	.
.	.	96GJJJ	.
.	.	96cLLL	.
.	.	96B	.
.	.	96cJJJ	.
.	.	96BLLL	.
.	.	96c	.
.	.	96BJJJ	.
.	.	96cLLL	.
.	.	96B	.
.	.	96cJJJJ	.
4D	4V7d	96B-LLLL	4r
.	.	96c	.
.	.	96B-JJJ	.
.	.	96cLLL	.
.	.	96B-	.
.	.	96cJJJ	.
.	.	96B-LLL	.
.	.	96c	.
.	.	96B-JJJ	.
.	.	96cLLL	.
.	.	96B-	.
.	.	96cJJJ	.
.	.	96B-LLL	.
.	.	96c	.
.	.	96B-JJJ	.
.	.	96cLLL	.
.	.	96B-	.
.	.	96cJJJ	.
.	.	96B-LLL	.
.	.	96c	.
.	.	96B-JJJ	.
.	.	96cLLL	.
.	.	96B-	.
.	.	96cJJJJ	.
=192	=192	=192	=192
*-	*-	*-	*-
!!!COM: Beethoven
!!!OTL: Six Variations on an Original Theme
!!!Variation: Variation 6 c2 (coda)
**function	**harm	**kern	**kern
*	*	*clefF4	*clefG2
*	*	*k[b-]	*k[b-]
*M2/4	*M2/4	*M2/4	*M2/4
*F:	*F:	*F:	*F:
=192-	=192-	=192-	=192-
*	*	*^	*
4T	4I	4A 4c	2F	2ff
8T	8IVc	8B-L 8d	.	.
8T	8I	8AJ 8c	.	.
*	*	*v	*v	*
=193	=193	=193	=193
4T	4V7	4F 4G 4B- 4e	[4.ccc
4T	4I	8F' 8A' 8c' 8f'	.
.	.	16r	96cccLLLL]
.	.	.	96bb-
.	.	.	96aa
.	.	.	96gg
.	.	.	96ff
.	.	.	96eeJJJ
.	.	16A 16c	96ddLLL
.	.	.	96cc
.	.	.	96b-
.	.	.	96a
.	.	.	96g
.	.	.	96fJJJJ
=194	=194	=194	=194
4T	4Ib	8.AL 8.c	96gLLLL
.	.	.	96f
.	.	.	96eJJJ
.	.	.	96fLLL
.	.	.	96g
.	.	.	96aJJJ
.	.	.	96b-LLL
.	.	.	96cc
.	.	.	96ddJJJ
.	.	.	96eeLLL
.	.	.	96ff
.	.	.	96ggJJJ
.	.	.	96aaLLL
.	.	.	96bb-
.	.	.	96cccJJJ
.	.	.	96dddLLL
.	.	.	96eee
.	.	.	96fffJJJ
.	.	16AJk 16c	96eeeLLL
.	.	.	96fff
.	.	.	96eeeJJJ
.	.	.	96fffLLL
.	.	.	96eee
.	.	.	96fffJJJJ
8.P	8.IV	16B-LL 16d	64r
.	.	.	(64eeeLLLL
.	.	.	64fff
.	.	.	64ffJJJJ)
.	.	16A 16c	64r
.	.	.	(64eeeLLLL
.	.	.	64fff
.	.	.	64ffJJJJ)
.	.	16G 16B-	64r
.	.	.	(64eeLLLL
.	.	.	64ff
.	.	.	64fJJJJ)
16P	16I	16FJJ 16A	64r
.	.	.	(64bLLLL
.	.	.	64cc
.	.	.	64cJJJJ)
=195	=195	=195	=195
*	*	*^	*
4D	4Ic	4F 4A	[4C	8ccL
.	.	.	.	8cJ
16D	16V7	(16ELL 16G	16C]	16cc
*-	*-	*-	*-	*-
!!!COM: Beethoven
!!!OTL: Six Variations on an Original Theme
!!!Variation: Variation 6 d2 (coda)
**function	**harm	**kern	**kern
*	*	*clefF4	*clefG2
*	*	*k[b-]	*k[b-]
*M2/4	*M2/4	*M2/4	*M2/4
*F:	*F:	*F:	*F:
4.D	4.V7	16F 16A	8.r
.	.	16G 16B-	.
.	.	16G#JJ) 16B	.
=196	=196	=196	=196
*	*	*^	*
4T	4I	4A 4c	2F	8cc
.	.	.	.	4.ff
8T	8IVc	8B-L 8d	.	.
8T	8I	8AJ 8c	.	.
*	*	*v	*v	*
=197	=197	=197	=197
4T	4viioD7	4F 4G 4B- 4d- 4e	4bb-
8T	8I	16F'LL 16A' 16c' 16f'	112aaLLLLL
.	.	.	112ccc
.	.	.	112bb-
.	.	.	112aa
.	.	.	112bb-
.	.	.	112ccc
.	.	.	112ddd
.	.	(16FF	(96fffLLL
.	.	.	96eee
.	.	.	96fffJJJ
.	.	.	96eeeLLL
.	.	.	96fff
.	.	.	96eeeJJJ)
16T	16vi	16DD	(96fffLLL
.	.	.	96eee
.	.	.	96fffJJJ
.	.	.	96eeeLLL
.	.	.	96fff
.	.	.	96eeeJJJ)
16P	16viio/V	16BBBJJ)	(96fffLLL
.	.	.	96eee
.	.	.	96fffJJJ
.	.	.	96eeeLLL
.	.	.	96fff
.	.	.	96eeeJJJJ)
=198	=198	=198	=198
4.D	4.Ic	16CC'L	[4fff;
.	.	8.C;J 8.F; 8.A;	.
.	.	.	32fffQ]
.	.	.	32eeeQ
.	.	.	32dddQ
.	.	.	32cccQ
.	.	.	32bbQ
.	.	.	32dddQ
.	.	.	32cccQ
.	.	.	32bb-Q
.	.	.	32aaQ
.	.	.	32ggQ
.	.	.	32bb-Q
.	.	.	32aaQ
.	.	.	32ggQ
.	.	.	32ffQ
.	.	.	32eeQ
.	.	.	32ggQ
.	.	.	32ffQ
.	.	.	32eeQ
.	.	.	32ddQ
.	.	.	32ccQ
.	.	.	32bQ
.	.	.	32ddQ
.	.	.	32ccQ
.	.	.	32b-Q
.	.	.	32aQ
.	.	.	32gQ
.	.	.	32b-Q
.	.	.	32aQ
.	.	.	32gQ
.	.	.	32fQ
.	.	.	32eQ
.	.	.	32gQ
.	.	.	32fQ
.	.	.	32eQ
.	.	.	32dQ
.	.	.	32cQ
.	.	.	32BQ
.	.	.	32dQ
.	.	.	32cQ
.	.	.	32B-Q
.	.	.	32AQ
.	.	.	32GQ
.	.	.	32B-Q
.	.	.	32AQ
.	.	.	32GQ
.	.	.	32FQ
.	.	.	32EQ
.	.	.	32GQ
.	.	.	32FQ
.	.	.	32EQ
.	.	.	32DQ
.	.	.	32CQ
.	.	.	32BBQ
.	.	.	32DQ
.	.	.	32CQ
.	.	.	32BBQ
.	.	.	32CQ
.	.	.	32DQ
.	.	.	32EQ
.	.	.	32FQ
.	.	.	32GQ
.	.	.	32AQ
.	.	.	32B-Q
.	.	.	32cQ
.	.	.	32dQ
.	.	.	32eQ
.	.	.	32fQ
.	.	.	32gQ
.	.	.	32aQ
.	.	.	32b-Q
.	.	.	32ccQ
.	.	.	32ddQ
.	.	.	32eeQ
.	.	.	32ffQ
.	.	.	32ggQ
.	.	.	32aaQ
.	.	8r	16bb-
.	.	.	16r
8D	8V7	16CC' 16C'	16G' 16B-' 16c' 16e'
.	.	16r	16r
=199	=199	=199	=199
2T	2I	8FFF' 8FF'	8A' 8c' 8f'
.	.	16r	16r
*	*	*clefG2	*
.	.	16a 16cc	16ff 16ccc
.	.	(8aL 8cc	(8ffL 8ccc
.	.	16b-L 16dd	16ffL 16ddd
.	.	16aJJ 16cc	16ffJJ 16ccc
=200	=200	=200	=200
8T	8V7c	8gL 8b- 8cc	8bb-L 8eee
8T	8I	16fJk) 16a 16cc	16aa'Jk) 16fff'
.	.	16r	32.r
.	.	.	64fff
8T	8Ic	16c' 16f' 16a'	(32.fffLLL
.	.	.	64cccJk)
.	.	16r	([16aaJJ
8T	8V7	16c' 16e' 16b-'	16aaLL]
.	.	16r	32.bb-L
.	.	.	64ggJJJk)
=201	=201	=201	=201
4T	4I	8f 8a	8ff
.	.	8r	16r
.	.	.	32.r
.	.	.	64ff
*	*	*clefF4	*
8T	8Ic	16C 16F 16A	(32.ffLLL
.	.	.	64ccJk)
.	.	16r	[16aJJ
8T	8V7	16C 16E 16B-	32aLLL]
.	.	.	(64b-L
.	.	.	64aJJJ
.	.	16r	80cc
.	.	.	80b-
.	.	.	80a
.	.	.	80b-
.	.	.	80g
=202	=202	=202	=202
2T	2I	16F' 16A'	16f')
.	.	16r	16r
.	.	16FFF' 16FF'	16f'
.	.	16r	16r
.	.	16FFF' 16FF'	16f'
.	.	16r	16r
.	.	8r	8r
==	==	==	==
*-	*-	*-	*-
